; Dual-extruder shape G-code (Duet)
; Toolpath generated in T0 world coordinates.
; Selected shape: star_cookie
; Duet tool setup (as requested):
M563 P0 D0 H1 ; Define Tool 0
G10 P0 X0 Y0 Z0 ; Set Tool 0 offsets to zero
M563 P1 D1 H2 ; Define Tool 1
G10 P1 X12.5 Y0.5 Z-0.45 ; Set Tool 1 measured offset
; T1 offsets: X=12.5 Y=0.5 Z=-0.45
; Manual software compensation: OFF (firmware G10 handles offsets)
G21 ; mm units
G90 ; absolute XY
M82 ; absolute extrusion
G92 E0
M106 S255
T0 ; Select tool for prime
G92 E0
G0 Z5 F600
G0 X38 Y38 F1600
G1 X54 Y38 E1.2 F850
G92 E0
T1 ; Select tool for prime
G92 E0
G0 Z5 F600
G0 X42 Y42 F1600
G1 X58 Y42 E1.2 F850
G92 E0
; --- Layer 1/20 at Z=5 ---
T0 ; Tool change
G92 E0
G0 Z5 F600
G0 X72 Y60 F1600
G1 X71.45 Y61.002 E1 F850
G1 X69.918 Y61.749 E2 F850
G1 X67.725 Y62.07 E3 F850
G1 X65.321 Y61.937 E4 F850
G1 X63.175 Y61.48 E5 F850
G1 X61.666 Y60.962 E6 F850
G1 X61 Y60.7 E7 F850
G1 X61.169 Y60.981 E8 F850
G1 X61.967 Y61.967 E9 F850
G1 X63.055 Y63.641 E10 F850
G1 X64.056 Y65.792 E11 F850
G1 X64.65 Y68.054 E12 F850
G1 X64.659 Y69.991 E13 F850
G1 X64.076 Y71.199 E14 F850
G1 X63.058 Y71.413 E15 F850
G1 X61.864 Y70.574 E16 F850
G1 X60.774 Y68.848 E17 F850
G1 X60 Y66.6 E18 F850
G1 X59.624 Y64.301 E19 F850
G1 X59.572 Y62.426 E20 F850
G1 X59.642 Y61.337 E21 F850
G1 X59.562 Y61.205 E22 F850
G1 X59.08 Y61.973 E23 F850
G1 X58.05 Y63.377 E24 F850
G1 X56.484 Y65.021 E25 F850
G1 X54.57 Y66.471 E26 F850
G1 X52.633 Y67.367 E27 F850
G1 X51.057 Y67.504 E28 F850
G1 X50.187 Y66.871 E29 F850
G1 X50.234 Y65.638 E30 F850
G1 X51.211 Y64.098 E31 F850
G1 X52.917 Y62.578 E32 F850
G1 X54.975 Y61.346 E33 F850
G1 X56.919 Y60.543 E34 F850
G1 X58.301 Y60.149 E35 F850
G1 X58.8 Y60 E36 F850
G1 X58.301 Y59.851 E37 F850
G1 X56.919 Y59.457 E38 F850
G1 X54.975 Y58.654 E39 F850
G1 X52.917 Y57.422 E40 F850
G1 X51.211 Y55.902 E41 F850
G1 X50.234 Y54.362 E42 F850
G1 X50.187 Y53.129 E43 F850
G1 X51.057 Y52.496 E44 F850
G1 X52.633 Y52.633 E45 F850
G1 X54.57 Y53.529 E46 F850
G1 X56.484 Y54.979 E47 F850
G1 X58.05 Y56.623 E48 F850
G1 X59.08 Y58.027 E49 F850
G1 X59.562 Y58.795 E50 F850
G1 X59.642 Y58.663 E51 F850
G1 X59.572 Y57.574 E52 F850
G1 X59.624 Y55.699 E53 F850
G1 X60 Y53.4 E54 F850
G1 X60.774 Y51.152 E55 F850
G1 X61.864 Y49.426 E56 F850
G1 X63.058 Y48.587 E57 F850
G1 X64.076 Y48.801 E58 F850
G1 X64.659 Y50.009 E59 F850
G1 X64.65 Y51.946 E60 F850
G1 X64.056 Y54.208 E61 F850
G1 X63.055 Y56.359 E62 F850
G1 X61.967 Y58.033 E63 F850
G1 X61.169 Y59.019 E64 F850
G1 X61 Y59.3 E65 F850
G1 X61.666 Y59.038 E66 F850
G1 X63.175 Y58.52 E67 F850
G1 X65.321 Y58.063 E68 F850
G1 X67.725 Y57.93 E69 F850
G1 X69.918 Y58.251 E70 F850
G1 X71.45 Y58.998 E71 F850
G1 X72 Y60 E72 F850
; --- Layer 2/20 at Z=5.8 ---
T1 ; Tool change
G92 E0
G0 Z5.8 F600
G0 X72 Y60 F1600
G1 X71.45 Y61.002 E1 F850
G1 X69.918 Y61.749 E2 F850
G1 X67.725 Y62.07 E3 F850
G1 X65.321 Y61.937 E4 F850
G1 X63.175 Y61.48 E5 F850
G1 X61.666 Y60.962 E6 F850
G1 X61 Y60.7 E7 F850
G1 X61.169 Y60.981 E8 F850
G1 X61.967 Y61.967 E9 F850
G1 X63.055 Y63.641 E10 F850
G1 X64.056 Y65.792 E11 F850
G1 X64.65 Y68.054 E12 F850
G1 X64.659 Y69.991 E13 F850
G1 X64.076 Y71.199 E14 F850
G1 X63.058 Y71.413 E15 F850
G1 X61.864 Y70.574 E16 F850
G1 X60.774 Y68.848 E17 F850
G1 X60 Y66.6 E18 F850
G1 X59.624 Y64.301 E19 F850
G1 X59.572 Y62.426 E20 F850
G1 X59.642 Y61.337 E21 F850
G1 X59.562 Y61.205 E22 F850
G1 X59.08 Y61.973 E23 F850
G1 X58.05 Y63.377 E24 F850
G1 X56.484 Y65.021 E25 F850
G1 X54.57 Y66.471 E26 F850
G1 X52.633 Y67.367 E27 F850
G1 X51.057 Y67.504 E28 F850
G1 X50.187 Y66.871 E29 F850
G1 X50.234 Y65.638 E30 F850
G1 X51.211 Y64.098 E31 F850
G1 X52.917 Y62.578 E32 F850
G1 X54.975 Y61.346 E33 F850
G1 X56.919 Y60.543 E34 F850
G1 X58.301 Y60.149 E35 F850
G1 X58.8 Y60 E36 F850
G1 X58.301 Y59.851 E37 F850
G1 X56.919 Y59.457 E38 F850
G1 X54.975 Y58.654 E39 F850
G1 X52.917 Y57.422 E40 F850
G1 X51.211 Y55.902 E41 F850
G1 X50.234 Y54.362 E42 F850
G1 X50.187 Y53.129 E43 F850
G1 X51.057 Y52.496 E44 F850
G1 X52.633 Y52.633 E45 F850
G1 X54.57 Y53.529 E46 F850
G1 X56.484 Y54.979 E47 F850
G1 X58.05 Y56.623 E48 F850
G1 X59.08 Y58.027 E49 F850
G1 X59.562 Y58.795 E50 F850
G1 X59.642 Y58.663 E51 F850
G1 X59.572 Y57.574 E52 F850
G1 X59.624 Y55.699 E53 F850
G1 X60 Y53.4 E54 F850
G1 X60.774 Y51.152 E55 F850
G1 X61.864 Y49.426 E56 F850
G1 X63.058 Y48.587 E57 F850
G1 X64.076 Y48.801 E58 F850
G1 X64.659 Y50.009 E59 F850
G1 X64.65 Y51.946 E60 F850
G1 X64.056 Y54.208 E61 F850
G1 X63.055 Y56.359 E62 F850
G1 X61.967 Y58.033 E63 F850
G1 X61.169 Y59.019 E64 F850
G1 X61 Y59.3 E65 F850
G1 X61.666 Y59.038 E66 F850
G1 X63.175 Y58.52 E67 F850
G1 X65.321 Y58.063 E68 F850
G1 X67.725 Y57.93 E69 F850
G1 X69.918 Y58.251 E70 F850
G1 X71.45 Y58.998 E71 F850
G1 X72 Y60 E72 F850
; --- Layer 3/20 at Z=6.6 ---
T0 ; Tool change
G92 E0
G0 Z6.6 F600
G0 X72 Y60 F1600
G1 X71.45 Y61.002 E1 F850
G1 X69.918 Y61.749 E2 F850
G1 X67.725 Y62.07 E3 F850
G1 X65.321 Y61.937 E4 F850
G1 X63.175 Y61.48 E5 F850
G1 X61.666 Y60.962 E6 F850
G1 X61 Y60.7 E7 F850
G1 X61.169 Y60.981 E8 F850
G1 X61.967 Y61.967 E9 F850
G1 X63.055 Y63.641 E10 F850
G1 X64.056 Y65.792 E11 F850
G1 X64.65 Y68.054 E12 F850
G1 X64.659 Y69.991 E13 F850
G1 X64.076 Y71.199 E14 F850
G1 X63.058 Y71.413 E15 F850
G1 X61.864 Y70.574 E16 F850
G1 X60.774 Y68.848 E17 F850
G1 X60 Y66.6 E18 F850
G1 X59.624 Y64.301 E19 F850
G1 X59.572 Y62.426 E20 F850
G1 X59.642 Y61.337 E21 F850
G1 X59.562 Y61.205 E22 F850
G1 X59.08 Y61.973 E23 F850
G1 X58.05 Y63.377 E24 F850
G1 X56.484 Y65.021 E25 F850
G1 X54.57 Y66.471 E26 F850
G1 X52.633 Y67.367 E27 F850
G1 X51.057 Y67.504 E28 F850
G1 X50.187 Y66.871 E29 F850
G1 X50.234 Y65.638 E30 F850
G1 X51.211 Y64.098 E31 F850
G1 X52.917 Y62.578 E32 F850
G1 X54.975 Y61.346 E33 F850
G1 X56.919 Y60.543 E34 F850
G1 X58.301 Y60.149 E35 F850
G1 X58.8 Y60 E36 F850
G1 X58.301 Y59.851 E37 F850
G1 X56.919 Y59.457 E38 F850
G1 X54.975 Y58.654 E39 F850
G1 X52.917 Y57.422 E40 F850
G1 X51.211 Y55.902 E41 F850
G1 X50.234 Y54.362 E42 F850
G1 X50.187 Y53.129 E43 F850
G1 X51.057 Y52.496 E44 F850
G1 X52.633 Y52.633 E45 F850
G1 X54.57 Y53.529 E46 F850
G1 X56.484 Y54.979 E47 F850
G1 X58.05 Y56.623 E48 F850
G1 X59.08 Y58.027 E49 F850
G1 X59.562 Y58.795 E50 F850
G1 X59.642 Y58.663 E51 F850
G1 X59.572 Y57.574 E52 F850
G1 X59.624 Y55.699 E53 F850
G1 X60 Y53.4 E54 F850
G1 X60.774 Y51.152 E55 F850
G1 X61.864 Y49.426 E56 F850
G1 X63.058 Y48.587 E57 F850
G1 X64.076 Y48.801 E58 F850
G1 X64.659 Y50.009 E59 F850
G1 X64.65 Y51.946 E60 F850
G1 X64.056 Y54.208 E61 F850
G1 X63.055 Y56.359 E62 F850
G1 X61.967 Y58.033 E63 F850
G1 X61.169 Y59.019 E64 F850
G1 X61 Y59.3 E65 F850
G1 X61.666 Y59.038 E66 F850
G1 X63.175 Y58.52 E67 F850
G1 X65.321 Y58.063 E68 F850
G1 X67.725 Y57.93 E69 F850
G1 X69.918 Y58.251 E70 F850
G1 X71.45 Y58.998 E71 F850
G1 X72 Y60 E72 F850
; --- Layer 4/20 at Z=7.4 ---
T1 ; Tool change
G92 E0
G0 Z7.4 F600
G0 X72 Y60 F1600
G1 X71.45 Y61.002 E1 F850
G1 X69.918 Y61.749 E2 F850
G1 X67.725 Y62.07 E3 F850
G1 X65.321 Y61.937 E4 F850
G1 X63.175 Y61.48 E5 F850
G1 X61.666 Y60.962 E6 F850
G1 X61 Y60.7 E7 F850
G1 X61.169 Y60.981 E8 F850
G1 X61.967 Y61.967 E9 F850
G1 X63.055 Y63.641 E10 F850
G1 X64.056 Y65.792 E11 F850
G1 X64.65 Y68.054 E12 F850
G1 X64.659 Y69.991 E13 F850
G1 X64.076 Y71.199 E14 F850
G1 X63.058 Y71.413 E15 F850
G1 X61.864 Y70.574 E16 F850
G1 X60.774 Y68.848 E17 F850
G1 X60 Y66.6 E18 F850
G1 X59.624 Y64.301 E19 F850
G1 X59.572 Y62.426 E20 F850
G1 X59.642 Y61.337 E21 F850
G1 X59.562 Y61.205 E22 F850
G1 X59.08 Y61.973 E23 F850
G1 X58.05 Y63.377 E24 F850
G1 X56.484 Y65.021 E25 F850
G1 X54.57 Y66.471 E26 F850
G1 X52.633 Y67.367 E27 F850
G1 X51.057 Y67.504 E28 F850
G1 X50.187 Y66.871 E29 F850
G1 X50.234 Y65.638 E30 F850
G1 X51.211 Y64.098 E31 F850
G1 X52.917 Y62.578 E32 F850
G1 X54.975 Y61.346 E33 F850
G1 X56.919 Y60.543 E34 F850
G1 X58.301 Y60.149 E35 F850
G1 X58.8 Y60 E36 F850
G1 X58.301 Y59.851 E37 F850
G1 X56.919 Y59.457 E38 F850
G1 X54.975 Y58.654 E39 F850
G1 X52.917 Y57.422 E40 F850
G1 X51.211 Y55.902 E41 F850
G1 X50.234 Y54.362 E42 F850
G1 X50.187 Y53.129 E43 F850
G1 X51.057 Y52.496 E44 F850
G1 X52.633 Y52.633 E45 F850
G1 X54.57 Y53.529 E46 F850
G1 X56.484 Y54.979 E47 F850
G1 X58.05 Y56.623 E48 F850
G1 X59.08 Y58.027 E49 F850
G1 X59.562 Y58.795 E50 F850
G1 X59.642 Y58.663 E51 F850
G1 X59.572 Y57.574 E52 F850
G1 X59.624 Y55.699 E53 F850
G1 X60 Y53.4 E54 F850
G1 X60.774 Y51.152 E55 F850
G1 X61.864 Y49.426 E56 F850
G1 X63.058 Y48.587 E57 F850
G1 X64.076 Y48.801 E58 F850
G1 X64.659 Y50.009 E59 F850
G1 X64.65 Y51.946 E60 F850
G1 X64.056 Y54.208 E61 F850
G1 X63.055 Y56.359 E62 F850
G1 X61.967 Y58.033 E63 F850
G1 X61.169 Y59.019 E64 F850
G1 X61 Y59.3 E65 F850
G1 X61.666 Y59.038 E66 F850
G1 X63.175 Y58.52 E67 F850
G1 X65.321 Y58.063 E68 F850
G1 X67.725 Y57.93 E69 F850
G1 X69.918 Y58.251 E70 F850
G1 X71.45 Y58.998 E71 F850
G1 X72 Y60 E72 F850
; --- Layer 5/20 at Z=8.2 ---
T0 ; Tool change
G92 E0
G0 Z8.2 F600
G0 X72 Y60 F1600
G1 X71.45 Y61.002 E1 F850
G1 X69.918 Y61.749 E2 F850
G1 X67.725 Y62.07 E3 F850
G1 X65.321 Y61.937 E4 F850
G1 X63.175 Y61.48 E5 F850
G1 X61.666 Y60.962 E6 F850
G1 X61 Y60.7 E7 F850
G1 X61.169 Y60.981 E8 F850
G1 X61.967 Y61.967 E9 F850
G1 X63.055 Y63.641 E10 F850
G1 X64.056 Y65.792 E11 F850
G1 X64.65 Y68.054 E12 F850
G1 X64.659 Y69.991 E13 F850
G1 X64.076 Y71.199 E14 F850
G1 X63.058 Y71.413 E15 F850
G1 X61.864 Y70.574 E16 F850
G1 X60.774 Y68.848 E17 F850
G1 X60 Y66.6 E18 F850
G1 X59.624 Y64.301 E19 F850
G1 X59.572 Y62.426 E20 F850
G1 X59.642 Y61.337 E21 F850
G1 X59.562 Y61.205 E22 F850
G1 X59.08 Y61.973 E23 F850
G1 X58.05 Y63.377 E24 F850
G1 X56.484 Y65.021 E25 F850
G1 X54.57 Y66.471 E26 F850
G1 X52.633 Y67.367 E27 F850
G1 X51.057 Y67.504 E28 F850
G1 X50.187 Y66.871 E29 F850
G1 X50.234 Y65.638 E30 F850
G1 X51.211 Y64.098 E31 F850
G1 X52.917 Y62.578 E32 F850
G1 X54.975 Y61.346 E33 F850
G1 X56.919 Y60.543 E34 F850
G1 X58.301 Y60.149 E35 F850
G1 X58.8 Y60 E36 F850
G1 X58.301 Y59.851 E37 F850
G1 X56.919 Y59.457 E38 F850
G1 X54.975 Y58.654 E39 F850
G1 X52.917 Y57.422 E40 F850
G1 X51.211 Y55.902 E41 F850
G1 X50.234 Y54.362 E42 F850
G1 X50.187 Y53.129 E43 F850
G1 X51.057 Y52.496 E44 F850
G1 X52.633 Y52.633 E45 F850
G1 X54.57 Y53.529 E46 F850
G1 X56.484 Y54.979 E47 F850
G1 X58.05 Y56.623 E48 F850
G1 X59.08 Y58.027 E49 F850
G1 X59.562 Y58.795 E50 F850
G1 X59.642 Y58.663 E51 F850
G1 X59.572 Y57.574 E52 F850
G1 X59.624 Y55.699 E53 F850
G1 X60 Y53.4 E54 F850
G1 X60.774 Y51.152 E55 F850
G1 X61.864 Y49.426 E56 F850
G1 X63.058 Y48.587 E57 F850
G1 X64.076 Y48.801 E58 F850
G1 X64.659 Y50.009 E59 F850
G1 X64.65 Y51.946 E60 F850
G1 X64.056 Y54.208 E61 F850
G1 X63.055 Y56.359 E62 F850
G1 X61.967 Y58.033 E63 F850
G1 X61.169 Y59.019 E64 F850
G1 X61 Y59.3 E65 F850
G1 X61.666 Y59.038 E66 F850
G1 X63.175 Y58.52 E67 F850
G1 X65.321 Y58.063 E68 F850
G1 X67.725 Y57.93 E69 F850
G1 X69.918 Y58.251 E70 F850
G1 X71.45 Y58.998 E71 F850
G1 X72 Y60 E72 F850
; --- Layer 6/20 at Z=9 ---
T1 ; Tool change
G92 E0
G0 Z9 F600
G0 X72 Y60 F1600
G1 X71.45 Y61.002 E1 F850
G1 X69.918 Y61.749 E2 F850
G1 X67.725 Y62.07 E3 F850
G1 X65.321 Y61.937 E4 F850
G1 X63.175 Y61.48 E5 F850
G1 X61.666 Y60.962 E6 F850
G1 X61 Y60.7 E7 F850
G1 X61.169 Y60.981 E8 F850
G1 X61.967 Y61.967 E9 F850
G1 X63.055 Y63.641 E10 F850
G1 X64.056 Y65.792 E11 F850
G1 X64.65 Y68.054 E12 F850
G1 X64.659 Y69.991 E13 F850
G1 X64.076 Y71.199 E14 F850
G1 X63.058 Y71.413 E15 F850
G1 X61.864 Y70.574 E16 F850
G1 X60.774 Y68.848 E17 F850
G1 X60 Y66.6 E18 F850
G1 X59.624 Y64.301 E19 F850
G1 X59.572 Y62.426 E20 F850
G1 X59.642 Y61.337 E21 F850
G1 X59.562 Y61.205 E22 F850
G1 X59.08 Y61.973 E23 F850
G1 X58.05 Y63.377 E24 F850
G1 X56.484 Y65.021 E25 F850
G1 X54.57 Y66.471 E26 F850
G1 X52.633 Y67.367 E27 F850
G1 X51.057 Y67.504 E28 F850
G1 X50.187 Y66.871 E29 F850
G1 X50.234 Y65.638 E30 F850
G1 X51.211 Y64.098 E31 F850
G1 X52.917 Y62.578 E32 F850
G1 X54.975 Y61.346 E33 F850
G1 X56.919 Y60.543 E34 F850
G1 X58.301 Y60.149 E35 F850
G1 X58.8 Y60 E36 F850
G1 X58.301 Y59.851 E37 F850
G1 X56.919 Y59.457 E38 F850
G1 X54.975 Y58.654 E39 F850
G1 X52.917 Y57.422 E40 F850
G1 X51.211 Y55.902 E41 F850
G1 X50.234 Y54.362 E42 F850
G1 X50.187 Y53.129 E43 F850
G1 X51.057 Y52.496 E44 F850
G1 X52.633 Y52.633 E45 F850
G1 X54.57 Y53.529 E46 F850
G1 X56.484 Y54.979 E47 F850
G1 X58.05 Y56.623 E48 F850
G1 X59.08 Y58.027 E49 F850
G1 X59.562 Y58.795 E50 F850
G1 X59.642 Y58.663 E51 F850
G1 X59.572 Y57.574 E52 F850
G1 X59.624 Y55.699 E53 F850
G1 X60 Y53.4 E54 F850
G1 X60.774 Y51.152 E55 F850
G1 X61.864 Y49.426 E56 F850
G1 X63.058 Y48.587 E57 F850
G1 X64.076 Y48.801 E58 F850
G1 X64.659 Y50.009 E59 F850
G1 X64.65 Y51.946 E60 F850
G1 X64.056 Y54.208 E61 F850
G1 X63.055 Y56.359 E62 F850
G1 X61.967 Y58.033 E63 F850
G1 X61.169 Y59.019 E64 F850
G1 X61 Y59.3 E65 F850
G1 X61.666 Y59.038 E66 F850
G1 X63.175 Y58.52 E67 F850
G1 X65.321 Y58.063 E68 F850
G1 X67.725 Y57.93 E69 F850
G1 X69.918 Y58.251 E70 F850
G1 X71.45 Y58.998 E71 F850
G1 X72 Y60 E72 F850
; --- Layer 7/20 at Z=9.8 ---
T0 ; Tool change
G92 E0
G0 Z9.8 F600
G0 X72 Y60 F1600
G1 X71.45 Y61.002 E1 F850
G1 X69.918 Y61.749 E2 F850
G1 X67.725 Y62.07 E3 F850
G1 X65.321 Y61.937 E4 F850
G1 X63.175 Y61.48 E5 F850
G1 X61.666 Y60.962 E6 F850
G1 X61 Y60.7 E7 F850
G1 X61.169 Y60.981 E8 F850
G1 X61.967 Y61.967 E9 F850
G1 X63.055 Y63.641 E10 F850
G1 X64.056 Y65.792 E11 F850
G1 X64.65 Y68.054 E12 F850
G1 X64.659 Y69.991 E13 F850
G1 X64.076 Y71.199 E14 F850
G1 X63.058 Y71.413 E15 F850
G1 X61.864 Y70.574 E16 F850
G1 X60.774 Y68.848 E17 F850
G1 X60 Y66.6 E18 F850
G1 X59.624 Y64.301 E19 F850
G1 X59.572 Y62.426 E20 F850
G1 X59.642 Y61.337 E21 F850
G1 X59.562 Y61.205 E22 F850
G1 X59.08 Y61.973 E23 F850
G1 X58.05 Y63.377 E24 F850
G1 X56.484 Y65.021 E25 F850
G1 X54.57 Y66.471 E26 F850
G1 X52.633 Y67.367 E27 F850
G1 X51.057 Y67.504 E28 F850
G1 X50.187 Y66.871 E29 F850
G1 X50.234 Y65.638 E30 F850
G1 X51.211 Y64.098 E31 F850
G1 X52.917 Y62.578 E32 F850
G1 X54.975 Y61.346 E33 F850
G1 X56.919 Y60.543 E34 F850
G1 X58.301 Y60.149 E35 F850
G1 X58.8 Y60 E36 F850
G1 X58.301 Y59.851 E37 F850
G1 X56.919 Y59.457 E38 F850
G1 X54.975 Y58.654 E39 F850
G1 X52.917 Y57.422 E40 F850
G1 X51.211 Y55.902 E41 F850
G1 X50.234 Y54.362 E42 F850
G1 X50.187 Y53.129 E43 F850
G1 X51.057 Y52.496 E44 F850
G1 X52.633 Y52.633 E45 F850
G1 X54.57 Y53.529 E46 F850
G1 X56.484 Y54.979 E47 F850
G1 X58.05 Y56.623 E48 F850
G1 X59.08 Y58.027 E49 F850
G1 X59.562 Y58.795 E50 F850
G1 X59.642 Y58.663 E51 F850
G1 X59.572 Y57.574 E52 F850
G1 X59.624 Y55.699 E53 F850
G1 X60 Y53.4 E54 F850
G1 X60.774 Y51.152 E55 F850
G1 X61.864 Y49.426 E56 F850
G1 X63.058 Y48.587 E57 F850
G1 X64.076 Y48.801 E58 F850
G1 X64.659 Y50.009 E59 F850
G1 X64.65 Y51.946 E60 F850
G1 X64.056 Y54.208 E61 F850
G1 X63.055 Y56.359 E62 F850
G1 X61.967 Y58.033 E63 F850
G1 X61.169 Y59.019 E64 F850
G1 X61 Y59.3 E65 F850
G1 X61.666 Y59.038 E66 F850
G1 X63.175 Y58.52 E67 F850
G1 X65.321 Y58.063 E68 F850
G1 X67.725 Y57.93 E69 F850
G1 X69.918 Y58.251 E70 F850
G1 X71.45 Y58.998 E71 F850
G1 X72 Y60 E72 F850
; --- Layer 8/20 at Z=10.6 ---
T1 ; Tool change
G92 E0
G0 Z10.6 F600
G0 X72 Y60 F1600
G1 X71.45 Y61.002 E1 F850
G1 X69.918 Y61.749 E2 F850
G1 X67.725 Y62.07 E3 F850
G1 X65.321 Y61.937 E4 F850
G1 X63.175 Y61.48 E5 F850
G1 X61.666 Y60.962 E6 F850
G1 X61 Y60.7 E7 F850
G1 X61.169 Y60.981 E8 F850
G1 X61.967 Y61.967 E9 F850
G1 X63.055 Y63.641 E10 F850
G1 X64.056 Y65.792 E11 F850
G1 X64.65 Y68.054 E12 F850
G1 X64.659 Y69.991 E13 F850
G1 X64.076 Y71.199 E14 F850
G1 X63.058 Y71.413 E15 F850
G1 X61.864 Y70.574 E16 F850
G1 X60.774 Y68.848 E17 F850
G1 X60 Y66.6 E18 F850
G1 X59.624 Y64.301 E19 F850
G1 X59.572 Y62.426 E20 F850
G1 X59.642 Y61.337 E21 F850
G1 X59.562 Y61.205 E22 F850
G1 X59.08 Y61.973 E23 F850
G1 X58.05 Y63.377 E24 F850
G1 X56.484 Y65.021 E25 F850
G1 X54.57 Y66.471 E26 F850
G1 X52.633 Y67.367 E27 F850
G1 X51.057 Y67.504 E28 F850
G1 X50.187 Y66.871 E29 F850
G1 X50.234 Y65.638 E30 F850
G1 X51.211 Y64.098 E31 F850
G1 X52.917 Y62.578 E32 F850
G1 X54.975 Y61.346 E33 F850
G1 X56.919 Y60.543 E34 F850
G1 X58.301 Y60.149 E35 F850
G1 X58.8 Y60 E36 F850
G1 X58.301 Y59.851 E37 F850
G1 X56.919 Y59.457 E38 F850
G1 X54.975 Y58.654 E39 F850
G1 X52.917 Y57.422 E40 F850
G1 X51.211 Y55.902 E41 F850
G1 X50.234 Y54.362 E42 F850
G1 X50.187 Y53.129 E43 F850
G1 X51.057 Y52.496 E44 F850
G1 X52.633 Y52.633 E45 F850
G1 X54.57 Y53.529 E46 F850
G1 X56.484 Y54.979 E47 F850
G1 X58.05 Y56.623 E48 F850
G1 X59.08 Y58.027 E49 F850
G1 X59.562 Y58.795 E50 F850
G1 X59.642 Y58.663 E51 F850
G1 X59.572 Y57.574 E52 F850
G1 X59.624 Y55.699 E53 F850
G1 X60 Y53.4 E54 F850
G1 X60.774 Y51.152 E55 F850
G1 X61.864 Y49.426 E56 F850
G1 X63.058 Y48.587 E57 F850
G1 X64.076 Y48.801 E58 F850
G1 X64.659 Y50.009 E59 F850
G1 X64.65 Y51.946 E60 F850
G1 X64.056 Y54.208 E61 F850
G1 X63.055 Y56.359 E62 F850
G1 X61.967 Y58.033 E63 F850
G1 X61.169 Y59.019 E64 F850
G1 X61 Y59.3 E65 F850
G1 X61.666 Y59.038 E66 F850
G1 X63.175 Y58.52 E67 F850
G1 X65.321 Y58.063 E68 F850
G1 X67.725 Y57.93 E69 F850
G1 X69.918 Y58.251 E70 F850
G1 X71.45 Y58.998 E71 F850
G1 X72 Y60 E72 F850
; --- Layer 9/20 at Z=11.4 ---
T0 ; Tool change
G92 E0
G0 Z11.4 F600
G0 X72 Y60 F1600
G1 X71.45 Y61.002 E1 F850
G1 X69.918 Y61.749 E2 F850
G1 X67.725 Y62.07 E3 F850
G1 X65.321 Y61.937 E4 F850
G1 X63.175 Y61.48 E5 F850
G1 X61.666 Y60.962 E6 F850
G1 X61 Y60.7 E7 F850
G1 X61.169 Y60.981 E8 F850
G1 X61.967 Y61.967 E9 F850
G1 X63.055 Y63.641 E10 F850
G1 X64.056 Y65.792 E11 F850
G1 X64.65 Y68.054 E12 F850
G1 X64.659 Y69.991 E13 F850
G1 X64.076 Y71.199 E14 F850
G1 X63.058 Y71.413 E15 F850
G1 X61.864 Y70.574 E16 F850
G1 X60.774 Y68.848 E17 F850
G1 X60 Y66.6 E18 F850
G1 X59.624 Y64.301 E19 F850
G1 X59.572 Y62.426 E20 F850
G1 X59.642 Y61.337 E21 F850
G1 X59.562 Y61.205 E22 F850
G1 X59.08 Y61.973 E23 F850
G1 X58.05 Y63.377 E24 F850
G1 X56.484 Y65.021 E25 F850
G1 X54.57 Y66.471 E26 F850
G1 X52.633 Y67.367 E27 F850
G1 X51.057 Y67.504 E28 F850
G1 X50.187 Y66.871 E29 F850
G1 X50.234 Y65.638 E30 F850
G1 X51.211 Y64.098 E31 F850
G1 X52.917 Y62.578 E32 F850
G1 X54.975 Y61.346 E33 F850
G1 X56.919 Y60.543 E34 F850
G1 X58.301 Y60.149 E35 F850
G1 X58.8 Y60 E36 F850
G1 X58.301 Y59.851 E37 F850
G1 X56.919 Y59.457 E38 F850
G1 X54.975 Y58.654 E39 F850
G1 X52.917 Y57.422 E40 F850
G1 X51.211 Y55.902 E41 F850
G1 X50.234 Y54.362 E42 F850
G1 X50.187 Y53.129 E43 F850
G1 X51.057 Y52.496 E44 F850
G1 X52.633 Y52.633 E45 F850
G1 X54.57 Y53.529 E46 F850
G1 X56.484 Y54.979 E47 F850
G1 X58.05 Y56.623 E48 F850
G1 X59.08 Y58.027 E49 F850
G1 X59.562 Y58.795 E50 F850
G1 X59.642 Y58.663 E51 F850
G1 X59.572 Y57.574 E52 F850
G1 X59.624 Y55.699 E53 F850
G1 X60 Y53.4 E54 F850
G1 X60.774 Y51.152 E55 F850
G1 X61.864 Y49.426 E56 F850
G1 X63.058 Y48.587 E57 F850
G1 X64.076 Y48.801 E58 F850
G1 X64.659 Y50.009 E59 F850
G1 X64.65 Y51.946 E60 F850
G1 X64.056 Y54.208 E61 F850
G1 X63.055 Y56.359 E62 F850
G1 X61.967 Y58.033 E63 F850
G1 X61.169 Y59.019 E64 F850
G1 X61 Y59.3 E65 F850
G1 X61.666 Y59.038 E66 F850
G1 X63.175 Y58.52 E67 F850
G1 X65.321 Y58.063 E68 F850
G1 X67.725 Y57.93 E69 F850
G1 X69.918 Y58.251 E70 F850
G1 X71.45 Y58.998 E71 F850
G1 X72 Y60 E72 F850
; --- Layer 10/20 at Z=12.2 ---
T1 ; Tool change
G92 E0
G0 Z12.2 F600
G0 X72 Y60 F1600
G1 X71.45 Y61.002 E1 F850
G1 X69.918 Y61.749 E2 F850
G1 X67.725 Y62.07 E3 F850
G1 X65.321 Y61.937 E4 F850
G1 X63.175 Y61.48 E5 F850
G1 X61.666 Y60.962 E6 F850
G1 X61 Y60.7 E7 F850
G1 X61.169 Y60.981 E8 F850
G1 X61.967 Y61.967 E9 F850
G1 X63.055 Y63.641 E10 F850
G1 X64.056 Y65.792 E11 F850
G1 X64.65 Y68.054 E12 F850
G1 X64.659 Y69.991 E13 F850
G1 X64.076 Y71.199 E14 F850
G1 X63.058 Y71.413 E15 F850
G1 X61.864 Y70.574 E16 F850
G1 X60.774 Y68.848 E17 F850
G1 X60 Y66.6 E18 F850
G1 X59.624 Y64.301 E19 F850
G1 X59.572 Y62.426 E20 F850
G1 X59.642 Y61.337 E21 F850
G1 X59.562 Y61.205 E22 F850
G1 X59.08 Y61.973 E23 F850
G1 X58.05 Y63.377 E24 F850
G1 X56.484 Y65.021 E25 F850
G1 X54.57 Y66.471 E26 F850
G1 X52.633 Y67.367 E27 F850
G1 X51.057 Y67.504 E28 F850
G1 X50.187 Y66.871 E29 F850
G1 X50.234 Y65.638 E30 F850
G1 X51.211 Y64.098 E31 F850
G1 X52.917 Y62.578 E32 F850
G1 X54.975 Y61.346 E33 F850
G1 X56.919 Y60.543 E34 F850
G1 X58.301 Y60.149 E35 F850
G1 X58.8 Y60 E36 F850
G1 X58.301 Y59.851 E37 F850
G1 X56.919 Y59.457 E38 F850
G1 X54.975 Y58.654 E39 F850
G1 X52.917 Y57.422 E40 F850
G1 X51.211 Y55.902 E41 F850
G1 X50.234 Y54.362 E42 F850
G1 X50.187 Y53.129 E43 F850
G1 X51.057 Y52.496 E44 F850
G1 X52.633 Y52.633 E45 F850
G1 X54.57 Y53.529 E46 F850
G1 X56.484 Y54.979 E47 F850
G1 X58.05 Y56.623 E48 F850
G1 X59.08 Y58.027 E49 F850
G1 X59.562 Y58.795 E50 F850
G1 X59.642 Y58.663 E51 F850
G1 X59.572 Y57.574 E52 F850
G1 X59.624 Y55.699 E53 F850
G1 X60 Y53.4 E54 F850
G1 X60.774 Y51.152 E55 F850
G1 X61.864 Y49.426 E56 F850
G1 X63.058 Y48.587 E57 F850
G1 X64.076 Y48.801 E58 F850
G1 X64.659 Y50.009 E59 F850
G1 X64.65 Y51.946 E60 F850
G1 X64.056 Y54.208 E61 F850
G1 X63.055 Y56.359 E62 F850
G1 X61.967 Y58.033 E63 F850
G1 X61.169 Y59.019 E64 F850
G1 X61 Y59.3 E65 F850
G1 X61.666 Y59.038 E66 F850
G1 X63.175 Y58.52 E67 F850
G1 X65.321 Y58.063 E68 F850
G1 X67.725 Y57.93 E69 F850
G1 X69.918 Y58.251 E70 F850
G1 X71.45 Y58.998 E71 F850
G1 X72 Y60 E72 F850
; --- Layer 11/20 at Z=13 ---
T0 ; Tool change
G92 E0
G0 Z13 F600
G0 X72 Y60 F1600
G1 X71.45 Y61.002 E1 F850
G1 X69.918 Y61.749 E2 F850
G1 X67.725 Y62.07 E3 F850
G1 X65.321 Y61.937 E4 F850
G1 X63.175 Y61.48 E5 F850
G1 X61.666 Y60.962 E6 F850
G1 X61 Y60.7 E7 F850
G1 X61.169 Y60.981 E8 F850
G1 X61.967 Y61.967 E9 F850
G1 X63.055 Y63.641 E10 F850
G1 X64.056 Y65.792 E11 F850
G1 X64.65 Y68.054 E12 F850
G1 X64.659 Y69.991 E13 F850
G1 X64.076 Y71.199 E14 F850
G1 X63.058 Y71.413 E15 F850
G1 X61.864 Y70.574 E16 F850
G1 X60.774 Y68.848 E17 F850
G1 X60 Y66.6 E18 F850
G1 X59.624 Y64.301 E19 F850
G1 X59.572 Y62.426 E20 F850
G1 X59.642 Y61.337 E21 F850
G1 X59.562 Y61.205 E22 F850
G1 X59.08 Y61.973 E23 F850
G1 X58.05 Y63.377 E24 F850
G1 X56.484 Y65.021 E25 F850
G1 X54.57 Y66.471 E26 F850
G1 X52.633 Y67.367 E27 F850
G1 X51.057 Y67.504 E28 F850
G1 X50.187 Y66.871 E29 F850
G1 X50.234 Y65.638 E30 F850
G1 X51.211 Y64.098 E31 F850
G1 X52.917 Y62.578 E32 F850
G1 X54.975 Y61.346 E33 F850
G1 X56.919 Y60.543 E34 F850
G1 X58.301 Y60.149 E35 F850
G1 X58.8 Y60 E36 F850
G1 X58.301 Y59.851 E37 F850
G1 X56.919 Y59.457 E38 F850
G1 X54.975 Y58.654 E39 F850
G1 X52.917 Y57.422 E40 F850
G1 X51.211 Y55.902 E41 F850
G1 X50.234 Y54.362 E42 F850
G1 X50.187 Y53.129 E43 F850
G1 X51.057 Y52.496 E44 F850
G1 X52.633 Y52.633 E45 F850
G1 X54.57 Y53.529 E46 F850
G1 X56.484 Y54.979 E47 F850
G1 X58.05 Y56.623 E48 F850
G1 X59.08 Y58.027 E49 F850
G1 X59.562 Y58.795 E50 F850
G1 X59.642 Y58.663 E51 F850
G1 X59.572 Y57.574 E52 F850
G1 X59.624 Y55.699 E53 F850
G1 X60 Y53.4 E54 F850
G1 X60.774 Y51.152 E55 F850
G1 X61.864 Y49.426 E56 F850
G1 X63.058 Y48.587 E57 F850
G1 X64.076 Y48.801 E58 F850
G1 X64.659 Y50.009 E59 F850
G1 X64.65 Y51.946 E60 F850
G1 X64.056 Y54.208 E61 F850
G1 X63.055 Y56.359 E62 F850
G1 X61.967 Y58.033 E63 F850
G1 X61.169 Y59.019 E64 F850
G1 X61 Y59.3 E65 F850
G1 X61.666 Y59.038 E66 F850
G1 X63.175 Y58.52 E67 F850
G1 X65.321 Y58.063 E68 F850
G1 X67.725 Y57.93 E69 F850
G1 X69.918 Y58.251 E70 F850
G1 X71.45 Y58.998 E71 F850
G1 X72 Y60 E72 F850
; --- Layer 12/20 at Z=13.8 ---
T1 ; Tool change
G92 E0
G0 Z13.8 F600
G0 X72 Y60 F1600
G1 X71.45 Y61.002 E1 F850
G1 X69.918 Y61.749 E2 F850
G1 X67.725 Y62.07 E3 F850
G1 X65.321 Y61.937 E4 F850
G1 X63.175 Y61.48 E5 F850
G1 X61.666 Y60.962 E6 F850
G1 X61 Y60.7 E7 F850
G1 X61.169 Y60.981 E8 F850
G1 X61.967 Y61.967 E9 F850
G1 X63.055 Y63.641 E10 F850
G1 X64.056 Y65.792 E11 F850
G1 X64.65 Y68.054 E12 F850
G1 X64.659 Y69.991 E13 F850
G1 X64.076 Y71.199 E14 F850
G1 X63.058 Y71.413 E15 F850
G1 X61.864 Y70.574 E16 F850
G1 X60.774 Y68.848 E17 F850
G1 X60 Y66.6 E18 F850
G1 X59.624 Y64.301 E19 F850
G1 X59.572 Y62.426 E20 F850
G1 X59.642 Y61.337 E21 F850
G1 X59.562 Y61.205 E22 F850
G1 X59.08 Y61.973 E23 F850
G1 X58.05 Y63.377 E24 F850
G1 X56.484 Y65.021 E25 F850
G1 X54.57 Y66.471 E26 F850
G1 X52.633 Y67.367 E27 F850
G1 X51.057 Y67.504 E28 F850
G1 X50.187 Y66.871 E29 F850
G1 X50.234 Y65.638 E30 F850
G1 X51.211 Y64.098 E31 F850
G1 X52.917 Y62.578 E32 F850
G1 X54.975 Y61.346 E33 F850
G1 X56.919 Y60.543 E34 F850
G1 X58.301 Y60.149 E35 F850
G1 X58.8 Y60 E36 F850
G1 X58.301 Y59.851 E37 F850
G1 X56.919 Y59.457 E38 F850
G1 X54.975 Y58.654 E39 F850
G1 X52.917 Y57.422 E40 F850
G1 X51.211 Y55.902 E41 F850
G1 X50.234 Y54.362 E42 F850
G1 X50.187 Y53.129 E43 F850
G1 X51.057 Y52.496 E44 F850
G1 X52.633 Y52.633 E45 F850
G1 X54.57 Y53.529 E46 F850
G1 X56.484 Y54.979 E47 F850
G1 X58.05 Y56.623 E48 F850
G1 X59.08 Y58.027 E49 F850
G1 X59.562 Y58.795 E50 F850
G1 X59.642 Y58.663 E51 F850
G1 X59.572 Y57.574 E52 F850
G1 X59.624 Y55.699 E53 F850
G1 X60 Y53.4 E54 F850
G1 X60.774 Y51.152 E55 F850
G1 X61.864 Y49.426 E56 F850
G1 X63.058 Y48.587 E57 F850
G1 X64.076 Y48.801 E58 F850
G1 X64.659 Y50.009 E59 F850
G1 X64.65 Y51.946 E60 F850
G1 X64.056 Y54.208 E61 F850
G1 X63.055 Y56.359 E62 F850
G1 X61.967 Y58.033 E63 F850
G1 X61.169 Y59.019 E64 F850
G1 X61 Y59.3 E65 F850
G1 X61.666 Y59.038 E66 F850
G1 X63.175 Y58.52 E67 F850
G1 X65.321 Y58.063 E68 F850
G1 X67.725 Y57.93 E69 F850
G1 X69.918 Y58.251 E70 F850
G1 X71.45 Y58.998 E71 F850
G1 X72 Y60 E72 F850
; --- Layer 13/20 at Z=14.6 ---
T0 ; Tool change
G92 E0
G0 Z14.6 F600
G0 X72 Y60 F1600
G1 X71.45 Y61.002 E1 F850
G1 X69.918 Y61.749 E2 F850
G1 X67.725 Y62.07 E3 F850
G1 X65.321 Y61.937 E4 F850
G1 X63.175 Y61.48 E5 F850
G1 X61.666 Y60.962 E6 F850
G1 X61 Y60.7 E7 F850
G1 X61.169 Y60.981 E8 F850
G1 X61.967 Y61.967 E9 F850
G1 X63.055 Y63.641 E10 F850
G1 X64.056 Y65.792 E11 F850
G1 X64.65 Y68.054 E12 F850
G1 X64.659 Y69.991 E13 F850
G1 X64.076 Y71.199 E14 F850
G1 X63.058 Y71.413 E15 F850
G1 X61.864 Y70.574 E16 F850
G1 X60.774 Y68.848 E17 F850
G1 X60 Y66.6 E18 F850
G1 X59.624 Y64.301 E19 F850
G1 X59.572 Y62.426 E20 F850
G1 X59.642 Y61.337 E21 F850
G1 X59.562 Y61.205 E22 F850
G1 X59.08 Y61.973 E23 F850
G1 X58.05 Y63.377 E24 F850
G1 X56.484 Y65.021 E25 F850
G1 X54.57 Y66.471 E26 F850
G1 X52.633 Y67.367 E27 F850
G1 X51.057 Y67.504 E28 F850
G1 X50.187 Y66.871 E29 F850
G1 X50.234 Y65.638 E30 F850
G1 X51.211 Y64.098 E31 F850
G1 X52.917 Y62.578 E32 F850
G1 X54.975 Y61.346 E33 F850
G1 X56.919 Y60.543 E34 F850
G1 X58.301 Y60.149 E35 F850
G1 X58.8 Y60 E36 F850
G1 X58.301 Y59.851 E37 F850
G1 X56.919 Y59.457 E38 F850
G1 X54.975 Y58.654 E39 F850
G1 X52.917 Y57.422 E40 F850
G1 X51.211 Y55.902 E41 F850
G1 X50.234 Y54.362 E42 F850
G1 X50.187 Y53.129 E43 F850
G1 X51.057 Y52.496 E44 F850
G1 X52.633 Y52.633 E45 F850
G1 X54.57 Y53.529 E46 F850
G1 X56.484 Y54.979 E47 F850
G1 X58.05 Y56.623 E48 F850
G1 X59.08 Y58.027 E49 F850
G1 X59.562 Y58.795 E50 F850
G1 X59.642 Y58.663 E51 F850
G1 X59.572 Y57.574 E52 F850
G1 X59.624 Y55.699 E53 F850
G1 X60 Y53.4 E54 F850
G1 X60.774 Y51.152 E55 F850
G1 X61.864 Y49.426 E56 F850
G1 X63.058 Y48.587 E57 F850
G1 X64.076 Y48.801 E58 F850
G1 X64.659 Y50.009 E59 F850
G1 X64.65 Y51.946 E60 F850
G1 X64.056 Y54.208 E61 F850
G1 X63.055 Y56.359 E62 F850
G1 X61.967 Y58.033 E63 F850
G1 X61.169 Y59.019 E64 F850
G1 X61 Y59.3 E65 F850
G1 X61.666 Y59.038 E66 F850
G1 X63.175 Y58.52 E67 F850
G1 X65.321 Y58.063 E68 F850
G1 X67.725 Y57.93 E69 F850
G1 X69.918 Y58.251 E70 F850
G1 X71.45 Y58.998 E71 F850
G1 X72 Y60 E72 F850
; --- Layer 14/20 at Z=15.4 ---
T1 ; Tool change
G92 E0
G0 Z15.4 F600
G0 X72 Y60 F1600
G1 X71.45 Y61.002 E1 F850
G1 X69.918 Y61.749 E2 F850
G1 X67.725 Y62.07 E3 F850
G1 X65.321 Y61.937 E4 F850
G1 X63.175 Y61.48 E5 F850
G1 X61.666 Y60.962 E6 F850
G1 X61 Y60.7 E7 F850
G1 X61.169 Y60.981 E8 F850
G1 X61.967 Y61.967 E9 F850
G1 X63.055 Y63.641 E10 F850
G1 X64.056 Y65.792 E11 F850
G1 X64.65 Y68.054 E12 F850
G1 X64.659 Y69.991 E13 F850
G1 X64.076 Y71.199 E14 F850
G1 X63.058 Y71.413 E15 F850
G1 X61.864 Y70.574 E16 F850
G1 X60.774 Y68.848 E17 F850
G1 X60 Y66.6 E18 F850
G1 X59.624 Y64.301 E19 F850
G1 X59.572 Y62.426 E20 F850
G1 X59.642 Y61.337 E21 F850
G1 X59.562 Y61.205 E22 F850
G1 X59.08 Y61.973 E23 F850
G1 X58.05 Y63.377 E24 F850
G1 X56.484 Y65.021 E25 F850
G1 X54.57 Y66.471 E26 F850
G1 X52.633 Y67.367 E27 F850
G1 X51.057 Y67.504 E28 F850
G1 X50.187 Y66.871 E29 F850
G1 X50.234 Y65.638 E30 F850
G1 X51.211 Y64.098 E31 F850
G1 X52.917 Y62.578 E32 F850
G1 X54.975 Y61.346 E33 F850
G1 X56.919 Y60.543 E34 F850
G1 X58.301 Y60.149 E35 F850
G1 X58.8 Y60 E36 F850
G1 X58.301 Y59.851 E37 F850
G1 X56.919 Y59.457 E38 F850
G1 X54.975 Y58.654 E39 F850
G1 X52.917 Y57.422 E40 F850
G1 X51.211 Y55.902 E41 F850
G1 X50.234 Y54.362 E42 F850
G1 X50.187 Y53.129 E43 F850
G1 X51.057 Y52.496 E44 F850
G1 X52.633 Y52.633 E45 F850
G1 X54.57 Y53.529 E46 F850
G1 X56.484 Y54.979 E47 F850
G1 X58.05 Y56.623 E48 F850
G1 X59.08 Y58.027 E49 F850
G1 X59.562 Y58.795 E50 F850
G1 X59.642 Y58.663 E51 F850
G1 X59.572 Y57.574 E52 F850
G1 X59.624 Y55.699 E53 F850
G1 X60 Y53.4 E54 F850
G1 X60.774 Y51.152 E55 F850
G1 X61.864 Y49.426 E56 F850
G1 X63.058 Y48.587 E57 F850
G1 X64.076 Y48.801 E58 F850
G1 X64.659 Y50.009 E59 F850
G1 X64.65 Y51.946 E60 F850
G1 X64.056 Y54.208 E61 F850
G1 X63.055 Y56.359 E62 F850
G1 X61.967 Y58.033 E63 F850
G1 X61.169 Y59.019 E64 F850
G1 X61 Y59.3 E65 F850
G1 X61.666 Y59.038 E66 F850
G1 X63.175 Y58.52 E67 F850
G1 X65.321 Y58.063 E68 F850
G1 X67.725 Y57.93 E69 F850
G1 X69.918 Y58.251 E70 F850
G1 X71.45 Y58.998 E71 F850
G1 X72 Y60 E72 F850
; --- Layer 15/20 at Z=16.2 ---
T0 ; Tool change
G92 E0
G0 Z16.2 F600
G0 X72 Y60 F1600
G1 X71.45 Y61.002 E1 F850
G1 X69.918 Y61.749 E2 F850
G1 X67.725 Y62.07 E3 F850
G1 X65.321 Y61.937 E4 F850
G1 X63.175 Y61.48 E5 F850
G1 X61.666 Y60.962 E6 F850
G1 X61 Y60.7 E7 F850
G1 X61.169 Y60.981 E8 F850
G1 X61.967 Y61.967 E9 F850
G1 X63.055 Y63.641 E10 F850
G1 X64.056 Y65.792 E11 F850
G1 X64.65 Y68.054 E12 F850
G1 X64.659 Y69.991 E13 F850
G1 X64.076 Y71.199 E14 F850
G1 X63.058 Y71.413 E15 F850
G1 X61.864 Y70.574 E16 F850
G1 X60.774 Y68.848 E17 F850
G1 X60 Y66.6 E18 F850
G1 X59.624 Y64.301 E19 F850
G1 X59.572 Y62.426 E20 F850
G1 X59.642 Y61.337 E21 F850
G1 X59.562 Y61.205 E22 F850
G1 X59.08 Y61.973 E23 F850
G1 X58.05 Y63.377 E24 F850
G1 X56.484 Y65.021 E25 F850
G1 X54.57 Y66.471 E26 F850
G1 X52.633 Y67.367 E27 F850
G1 X51.057 Y67.504 E28 F850
G1 X50.187 Y66.871 E29 F850
G1 X50.234 Y65.638 E30 F850
G1 X51.211 Y64.098 E31 F850
G1 X52.917 Y62.578 E32 F850
G1 X54.975 Y61.346 E33 F850
G1 X56.919 Y60.543 E34 F850
G1 X58.301 Y60.149 E35 F850
G1 X58.8 Y60 E36 F850
G1 X58.301 Y59.851 E37 F850
G1 X56.919 Y59.457 E38 F850
G1 X54.975 Y58.654 E39 F850
G1 X52.917 Y57.422 E40 F850
G1 X51.211 Y55.902 E41 F850
G1 X50.234 Y54.362 E42 F850
G1 X50.187 Y53.129 E43 F850
G1 X51.057 Y52.496 E44 F850
G1 X52.633 Y52.633 E45 F850
G1 X54.57 Y53.529 E46 F850
G1 X56.484 Y54.979 E47 F850
G1 X58.05 Y56.623 E48 F850
G1 X59.08 Y58.027 E49 F850
G1 X59.562 Y58.795 E50 F850
G1 X59.642 Y58.663 E51 F850
G1 X59.572 Y57.574 E52 F850
G1 X59.624 Y55.699 E53 F850
G1 X60 Y53.4 E54 F850
G1 X60.774 Y51.152 E55 F850
G1 X61.864 Y49.426 E56 F850
G1 X63.058 Y48.587 E57 F850
G1 X64.076 Y48.801 E58 F850
G1 X64.659 Y50.009 E59 F850
G1 X64.65 Y51.946 E60 F850
G1 X64.056 Y54.208 E61 F850
G1 X63.055 Y56.359 E62 F850
G1 X61.967 Y58.033 E63 F850
G1 X61.169 Y59.019 E64 F850
G1 X61 Y59.3 E65 F850
G1 X61.666 Y59.038 E66 F850
G1 X63.175 Y58.52 E67 F850
G1 X65.321 Y58.063 E68 F850
G1 X67.725 Y57.93 E69 F850
G1 X69.918 Y58.251 E70 F850
G1 X71.45 Y58.998 E71 F850
G1 X72 Y60 E72 F850
; --- Layer 16/20 at Z=17 ---
T1 ; Tool change
G92 E0
G0 Z17 F600
G0 X72 Y60 F1600
G1 X71.45 Y61.002 E1 F850
G1 X69.918 Y61.749 E2 F850
G1 X67.725 Y62.07 E3 F850
G1 X65.321 Y61.937 E4 F850
G1 X63.175 Y61.48 E5 F850
G1 X61.666 Y60.962 E6 F850
G1 X61 Y60.7 E7 F850
G1 X61.169 Y60.981 E8 F850
G1 X61.967 Y61.967 E9 F850
G1 X63.055 Y63.641 E10 F850
G1 X64.056 Y65.792 E11 F850
G1 X64.65 Y68.054 E12 F850
G1 X64.659 Y69.991 E13 F850
G1 X64.076 Y71.199 E14 F850
G1 X63.058 Y71.413 E15 F850
G1 X61.864 Y70.574 E16 F850
G1 X60.774 Y68.848 E17 F850
G1 X60 Y66.6 E18 F850
G1 X59.624 Y64.301 E19 F850
G1 X59.572 Y62.426 E20 F850
G1 X59.642 Y61.337 E21 F850
G1 X59.562 Y61.205 E22 F850
G1 X59.08 Y61.973 E23 F850
G1 X58.05 Y63.377 E24 F850
G1 X56.484 Y65.021 E25 F850
G1 X54.57 Y66.471 E26 F850
G1 X52.633 Y67.367 E27 F850
G1 X51.057 Y67.504 E28 F850
G1 X50.187 Y66.871 E29 F850
G1 X50.234 Y65.638 E30 F850
G1 X51.211 Y64.098 E31 F850
G1 X52.917 Y62.578 E32 F850
G1 X54.975 Y61.346 E33 F850
G1 X56.919 Y60.543 E34 F850
G1 X58.301 Y60.149 E35 F850
G1 X58.8 Y60 E36 F850
G1 X58.301 Y59.851 E37 F850
G1 X56.919 Y59.457 E38 F850
G1 X54.975 Y58.654 E39 F850
G1 X52.917 Y57.422 E40 F850
G1 X51.211 Y55.902 E41 F850
G1 X50.234 Y54.362 E42 F850
G1 X50.187 Y53.129 E43 F850
G1 X51.057 Y52.496 E44 F850
G1 X52.633 Y52.633 E45 F850
G1 X54.57 Y53.529 E46 F850
G1 X56.484 Y54.979 E47 F850
G1 X58.05 Y56.623 E48 F850
G1 X59.08 Y58.027 E49 F850
G1 X59.562 Y58.795 E50 F850
G1 X59.642 Y58.663 E51 F850
G1 X59.572 Y57.574 E52 F850
G1 X59.624 Y55.699 E53 F850
G1 X60 Y53.4 E54 F850
G1 X60.774 Y51.152 E55 F850
G1 X61.864 Y49.426 E56 F850
G1 X63.058 Y48.587 E57 F850
G1 X64.076 Y48.801 E58 F850
G1 X64.659 Y50.009 E59 F850
G1 X64.65 Y51.946 E60 F850
G1 X64.056 Y54.208 E61 F850
G1 X63.055 Y56.359 E62 F850
G1 X61.967 Y58.033 E63 F850
G1 X61.169 Y59.019 E64 F850
G1 X61 Y59.3 E65 F850
G1 X61.666 Y59.038 E66 F850
G1 X63.175 Y58.52 E67 F850
G1 X65.321 Y58.063 E68 F850
G1 X67.725 Y57.93 E69 F850
G1 X69.918 Y58.251 E70 F850
G1 X71.45 Y58.998 E71 F850
G1 X72 Y60 E72 F850
; --- Layer 17/20 at Z=17.8 ---
T0 ; Tool change
G92 E0
G0 Z17.8 F600
G0 X72 Y60 F1600
G1 X71.45 Y61.002 E1 F850
G1 X69.918 Y61.749 E2 F850
G1 X67.725 Y62.07 E3 F850
G1 X65.321 Y61.937 E4 F850
G1 X63.175 Y61.48 E5 F850
G1 X61.666 Y60.962 E6 F850
G1 X61 Y60.7 E7 F850
G1 X61.169 Y60.981 E8 F850
G1 X61.967 Y61.967 E9 F850
G1 X63.055 Y63.641 E10 F850
G1 X64.056 Y65.792 E11 F850
G1 X64.65 Y68.054 E12 F850
G1 X64.659 Y69.991 E13 F850
G1 X64.076 Y71.199 E14 F850
G1 X63.058 Y71.413 E15 F850
G1 X61.864 Y70.574 E16 F850
G1 X60.774 Y68.848 E17 F850
G1 X60 Y66.6 E18 F850
G1 X59.624 Y64.301 E19 F850
G1 X59.572 Y62.426 E20 F850
G1 X59.642 Y61.337 E21 F850
G1 X59.562 Y61.205 E22 F850
G1 X59.08 Y61.973 E23 F850
G1 X58.05 Y63.377 E24 F850
G1 X56.484 Y65.021 E25 F850
G1 X54.57 Y66.471 E26 F850
G1 X52.633 Y67.367 E27 F850
G1 X51.057 Y67.504 E28 F850
G1 X50.187 Y66.871 E29 F850
G1 X50.234 Y65.638 E30 F850
G1 X51.211 Y64.098 E31 F850
G1 X52.917 Y62.578 E32 F850
G1 X54.975 Y61.346 E33 F850
G1 X56.919 Y60.543 E34 F850
G1 X58.301 Y60.149 E35 F850
G1 X58.8 Y60 E36 F850
G1 X58.301 Y59.851 E37 F850
G1 X56.919 Y59.457 E38 F850
G1 X54.975 Y58.654 E39 F850
G1 X52.917 Y57.422 E40 F850
G1 X51.211 Y55.902 E41 F850
G1 X50.234 Y54.362 E42 F850
G1 X50.187 Y53.129 E43 F850
G1 X51.057 Y52.496 E44 F850
G1 X52.633 Y52.633 E45 F850
G1 X54.57 Y53.529 E46 F850
G1 X56.484 Y54.979 E47 F850
G1 X58.05 Y56.623 E48 F850
G1 X59.08 Y58.027 E49 F850
G1 X59.562 Y58.795 E50 F850
G1 X59.642 Y58.663 E51 F850
G1 X59.572 Y57.574 E52 F850
G1 X59.624 Y55.699 E53 F850
G1 X60 Y53.4 E54 F850
G1 X60.774 Y51.152 E55 F850
G1 X61.864 Y49.426 E56 F850
G1 X63.058 Y48.587 E57 F850
G1 X64.076 Y48.801 E58 F850
G1 X64.659 Y50.009 E59 F850
G1 X64.65 Y51.946 E60 F850
G1 X64.056 Y54.208 E61 F850
G1 X63.055 Y56.359 E62 F850
G1 X61.967 Y58.033 E63 F850
G1 X61.169 Y59.019 E64 F850
G1 X61 Y59.3 E65 F850
G1 X61.666 Y59.038 E66 F850
G1 X63.175 Y58.52 E67 F850
G1 X65.321 Y58.063 E68 F850
G1 X67.725 Y57.93 E69 F850
G1 X69.918 Y58.251 E70 F850
G1 X71.45 Y58.998 E71 F850
G1 X72 Y60 E72 F850
; --- Layer 18/20 at Z=18.6 ---
T1 ; Tool change
G92 E0
G0 Z18.6 F600
G0 X72 Y60 F1600
G1 X71.45 Y61.002 E1 F850
G1 X69.918 Y61.749 E2 F850
G1 X67.725 Y62.07 E3 F850
G1 X65.321 Y61.937 E4 F850
G1 X63.175 Y61.48 E5 F850
G1 X61.666 Y60.962 E6 F850
G1 X61 Y60.7 E7 F850
G1 X61.169 Y60.981 E8 F850
G1 X61.967 Y61.967 E9 F850
G1 X63.055 Y63.641 E10 F850
G1 X64.056 Y65.792 E11 F850
G1 X64.65 Y68.054 E12 F850
G1 X64.659 Y69.991 E13 F850
G1 X64.076 Y71.199 E14 F850
G1 X63.058 Y71.413 E15 F850
G1 X61.864 Y70.574 E16 F850
G1 X60.774 Y68.848 E17 F850
G1 X60 Y66.6 E18 F850
G1 X59.624 Y64.301 E19 F850
G1 X59.572 Y62.426 E20 F850
G1 X59.642 Y61.337 E21 F850
G1 X59.562 Y61.205 E22 F850
G1 X59.08 Y61.973 E23 F850
G1 X58.05 Y63.377 E24 F850
G1 X56.484 Y65.021 E25 F850
G1 X54.57 Y66.471 E26 F850
G1 X52.633 Y67.367 E27 F850
G1 X51.057 Y67.504 E28 F850
G1 X50.187 Y66.871 E29 F850
G1 X50.234 Y65.638 E30 F850
G1 X51.211 Y64.098 E31 F850
G1 X52.917 Y62.578 E32 F850
G1 X54.975 Y61.346 E33 F850
G1 X56.919 Y60.543 E34 F850
G1 X58.301 Y60.149 E35 F850
G1 X58.8 Y60 E36 F850
G1 X58.301 Y59.851 E37 F850
G1 X56.919 Y59.457 E38 F850
G1 X54.975 Y58.654 E39 F850
G1 X52.917 Y57.422 E40 F850
G1 X51.211 Y55.902 E41 F850
G1 X50.234 Y54.362 E42 F850
G1 X50.187 Y53.129 E43 F850
G1 X51.057 Y52.496 E44 F850
G1 X52.633 Y52.633 E45 F850
G1 X54.57 Y53.529 E46 F850
G1 X56.484 Y54.979 E47 F850
G1 X58.05 Y56.623 E48 F850
G1 X59.08 Y58.027 E49 F850
G1 X59.562 Y58.795 E50 F850
G1 X59.642 Y58.663 E51 F850
G1 X59.572 Y57.574 E52 F850
G1 X59.624 Y55.699 E53 F850
G1 X60 Y53.4 E54 F850
G1 X60.774 Y51.152 E55 F850
G1 X61.864 Y49.426 E56 F850
G1 X63.058 Y48.587 E57 F850
G1 X64.076 Y48.801 E58 F850
G1 X64.659 Y50.009 E59 F850
G1 X64.65 Y51.946 E60 F850
G1 X64.056 Y54.208 E61 F850
G1 X63.055 Y56.359 E62 F850
G1 X61.967 Y58.033 E63 F850
G1 X61.169 Y59.019 E64 F850
G1 X61 Y59.3 E65 F850
G1 X61.666 Y59.038 E66 F850
G1 X63.175 Y58.52 E67 F850
G1 X65.321 Y58.063 E68 F850
G1 X67.725 Y57.93 E69 F850
G1 X69.918 Y58.251 E70 F850
G1 X71.45 Y58.998 E71 F850
G1 X72 Y60 E72 F850
; --- Layer 19/20 at Z=19.4 ---
T0 ; Tool change
G92 E0
G0 Z19.4 F600
G0 X72 Y60 F1600
G1 X71.45 Y61.002 E1 F850
G1 X69.918 Y61.749 E2 F850
G1 X67.725 Y62.07 E3 F850
G1 X65.321 Y61.937 E4 F850
G1 X63.175 Y61.48 E5 F850
G1 X61.666 Y60.962 E6 F850
G1 X61 Y60.7 E7 F850
G1 X61.169 Y60.981 E8 F850
G1 X61.967 Y61.967 E9 F850
G1 X63.055 Y63.641 E10 F850
G1 X64.056 Y65.792 E11 F850
G1 X64.65 Y68.054 E12 F850
G1 X64.659 Y69.991 E13 F850
G1 X64.076 Y71.199 E14 F850
G1 X63.058 Y71.413 E15 F850
G1 X61.864 Y70.574 E16 F850
G1 X60.774 Y68.848 E17 F850
G1 X60 Y66.6 E18 F850
G1 X59.624 Y64.301 E19 F850
G1 X59.572 Y62.426 E20 F850
G1 X59.642 Y61.337 E21 F850
G1 X59.562 Y61.205 E22 F850
G1 X59.08 Y61.973 E23 F850
G1 X58.05 Y63.377 E24 F850
G1 X56.484 Y65.021 E25 F850
G1 X54.57 Y66.471 E26 F850
G1 X52.633 Y67.367 E27 F850
G1 X51.057 Y67.504 E28 F850
G1 X50.187 Y66.871 E29 F850
G1 X50.234 Y65.638 E30 F850
G1 X51.211 Y64.098 E31 F850
G1 X52.917 Y62.578 E32 F850
G1 X54.975 Y61.346 E33 F850
G1 X56.919 Y60.543 E34 F850
G1 X58.301 Y60.149 E35 F850
G1 X58.8 Y60 E36 F850
G1 X58.301 Y59.851 E37 F850
G1 X56.919 Y59.457 E38 F850
G1 X54.975 Y58.654 E39 F850
G1 X52.917 Y57.422 E40 F850
G1 X51.211 Y55.902 E41 F850
G1 X50.234 Y54.362 E42 F850
G1 X50.187 Y53.129 E43 F850
G1 X51.057 Y52.496 E44 F850
G1 X52.633 Y52.633 E45 F850
G1 X54.57 Y53.529 E46 F850
G1 X56.484 Y54.979 E47 F850
G1 X58.05 Y56.623 E48 F850
G1 X59.08 Y58.027 E49 F850
G1 X59.562 Y58.795 E50 F850
G1 X59.642 Y58.663 E51 F850
G1 X59.572 Y57.574 E52 F850
G1 X59.624 Y55.699 E53 F850
G1 X60 Y53.4 E54 F850
G1 X60.774 Y51.152 E55 F850
G1 X61.864 Y49.426 E56 F850
G1 X63.058 Y48.587 E57 F850
G1 X64.076 Y48.801 E58 F850
G1 X64.659 Y50.009 E59 F850
G1 X64.65 Y51.946 E60 F850
G1 X64.056 Y54.208 E61 F850
G1 X63.055 Y56.359 E62 F850
G1 X61.967 Y58.033 E63 F850
G1 X61.169 Y59.019 E64 F850
G1 X61 Y59.3 E65 F850
G1 X61.666 Y59.038 E66 F850
G1 X63.175 Y58.52 E67 F850
G1 X65.321 Y58.063 E68 F850
G1 X67.725 Y57.93 E69 F850
G1 X69.918 Y58.251 E70 F850
G1 X71.45 Y58.998 E71 F850
G1 X72 Y60 E72 F850
; --- Layer 20/20 at Z=20.2 ---
T1 ; Tool change
G92 E0
G0 Z20.2 F600
G0 X72 Y60 F1600
G1 X71.45 Y61.002 E1 F850
G1 X69.918 Y61.749 E2 F850
G1 X67.725 Y62.07 E3 F850
G1 X65.321 Y61.937 E4 F850
G1 X63.175 Y61.48 E5 F850
G1 X61.666 Y60.962 E6 F850
G1 X61 Y60.7 E7 F850
G1 X61.169 Y60.981 E8 F850
G1 X61.967 Y61.967 E9 F850
G1 X63.055 Y63.641 E10 F850
G1 X64.056 Y65.792 E11 F850
G1 X64.65 Y68.054 E12 F850
G1 X64.659 Y69.991 E13 F850
G1 X64.076 Y71.199 E14 F850
G1 X63.058 Y71.413 E15 F850
G1 X61.864 Y70.574 E16 F850
G1 X60.774 Y68.848 E17 F850
G1 X60 Y66.6 E18 F850
G1 X59.624 Y64.301 E19 F850
G1 X59.572 Y62.426 E20 F850
G1 X59.642 Y61.337 E21 F850
G1 X59.562 Y61.205 E22 F850
G1 X59.08 Y61.973 E23 F850
G1 X58.05 Y63.377 E24 F850
G1 X56.484 Y65.021 E25 F850
G1 X54.57 Y66.471 E26 F850
G1 X52.633 Y67.367 E27 F850
G1 X51.057 Y67.504 E28 F850
G1 X50.187 Y66.871 E29 F850
G1 X50.234 Y65.638 E30 F850
G1 X51.211 Y64.098 E31 F850
G1 X52.917 Y62.578 E32 F850
G1 X54.975 Y61.346 E33 F850
G1 X56.919 Y60.543 E34 F850
G1 X58.301 Y60.149 E35 F850
G1 X58.8 Y60 E36 F850
G1 X58.301 Y59.851 E37 F850
G1 X56.919 Y59.457 E38 F850
G1 X54.975 Y58.654 E39 F850
G1 X52.917 Y57.422 E40 F850
G1 X51.211 Y55.902 E41 F850
G1 X50.234 Y54.362 E42 F850
G1 X50.187 Y53.129 E43 F850
G1 X51.057 Y52.496 E44 F850
G1 X52.633 Y52.633 E45 F850
G1 X54.57 Y53.529 E46 F850
G1 X56.484 Y54.979 E47 F850
G1 X58.05 Y56.623 E48 F850
G1 X59.08 Y58.027 E49 F850
G1 X59.562 Y58.795 E50 F850
G1 X59.642 Y58.663 E51 F850
G1 X59.572 Y57.574 E52 F850
G1 X59.624 Y55.699 E53 F850
G1 X60 Y53.4 E54 F850
G1 X60.774 Y51.152 E55 F850
G1 X61.864 Y49.426 E56 F850
G1 X63.058 Y48.587 E57 F850
G1 X64.076 Y48.801 E58 F850
G1 X64.659 Y50.009 E59 F850
G1 X64.65 Y51.946 E60 F850
G1 X64.056 Y54.208 E61 F850
G1 X63.055 Y56.359 E62 F850
G1 X61.967 Y58.033 E63 F850
G1 X61.169 Y59.019 E64 F850
G1 X61 Y59.3 E65 F850
G1 X61.666 Y59.038 E66 F850
G1 X63.175 Y58.52 E67 F850
G1 X65.321 Y58.063 E68 F850
G1 X67.725 Y57.93 E69 F850
G1 X69.918 Y58.251 E70 F850
G1 X71.45 Y58.998 E71 F850
G1 X72 Y60 E72 F850
; --- End ---
G92 E0
G0 Z30 F600
M106 S0
M84
