; Dual-extruder shape G-code (Duet)
; Toolpath generated in T0 world coordinates.
; Selected shape: star_cookie
; Duet tool setup (as requested):
M563 P0 D0 H1 ; Define Tool 0
G10 P0 X0 Y0 Z0 ; Set Tool 0 offsets to zero
M563 P1 D1 H2 ; Define Tool 1
G10 P1 X12 Y0 Z0 ; Set Tool 1 measured offset
; T1 offsets: X=12.0 Y=0.0 Z=0.0
; Manual software compensation: ON
G21 ; mm units
G90 ; absolute XY
M83 ; relative extrusion
G92 E0
M106 S255
T0 ; Select tool for prime
G92 E0
G0 Z6 F600
G0 X30 Y30 F1600
G1 X46 Y30 E1.2 F850
G92 E0
T1 ; Select tool for prime
G92 E0
G0 Z6 F600
G0 X34 Y34 F1600
G1 X50 Y34 E1.2 F850
G92 E0
; --- Layer 1/6 at Z=6 ---
T0 ; Tool change
G1 E0.175 F425 ; Tool-change prime
G92 E0
G0 X80 Y60 F1600
G0 Z6 F600 ; Lower to print height
G1 X79.084 Y61.67 E3 F850
G1 X76.53 Y62.915 E1.8 F850
G1 X72.875 Y63.45 E1.8 F850
G1 X68.868 Y63.228 E1.8 F850
G1 X65.291 Y62.467 E1.8 F850
G1 X62.776 Y61.603 E1.8 F850
G1 X61.666 Y61.167 E1.8 F850
G1 X61.948 Y61.634 E1.8 F850
G1 X63.278 Y63.278 E1.8 F850
G1 X65.092 Y66.068 E1.8 F850
G1 X66.759 Y69.653 E1.8 F850
G1 X67.75 Y73.423 E1.8 F850
G1 X67.764 Y76.651 E1.8 F850
G1 X66.794 Y78.665 E1.8 F850
G1 X65.097 Y79.022 E1.8 F850
G1 X63.107 Y77.623 E1.8 F850
G1 X61.29 Y74.747 E1.8 F850
G1 X60 Y71 E1.8 F850
G1 X59.373 Y67.169 E1.8 F850
G1 X59.287 Y64.043 E1.8 F850
G1 X59.403 Y62.228 E1.8 F850
G1 X59.269 Y62.008 E1.8 F850
G1 X58.467 Y63.288 E1.8 F850
G1 X56.75 Y65.629 E1.8 F850
G1 X54.141 Y68.368 E1.8 F850
G1 X50.951 Y70.785 E1.8 F850
G1 X47.722 Y72.278 E1.8 F850
G1 X45.095 Y72.507 E1.8 F850
G1 X43.645 Y71.452 E1.8 F850
G1 X43.724 Y69.397 E1.8 F850
G1 X45.352 Y66.83 E1.8 F850
G1 X48.195 Y64.297 E1.8 F850
G1 X51.625 Y62.244 E1.8 F850
G1 X54.864 Y60.906 E1.8 F850
G1 X57.168 Y60.248 E1.8 F850
G1 X58 Y60 E1.8 F850
G1 X57.168 Y59.752 E1.8 F850
G1 X54.864 Y59.094 E1.8 F850
G1 X51.625 Y57.756 E1.8 F850
G1 X48.195 Y55.703 E1.8 F850
G1 X45.352 Y53.17 E1.8 F850
G1 X43.724 Y50.603 E1.8 F850
G1 X43.645 Y48.548 E1.8 F850
G1 X45.095 Y47.493 E1.8 F850
G1 X47.722 Y47.722 E1.8 F850
G1 X50.951 Y49.215 E1.8 F850
G1 X54.141 Y51.632 E1.8 F850
G1 X56.75 Y54.371 E1.8 F850
G1 X58.467 Y56.712 E1.8 F850
G1 X59.269 Y57.992 E1.8 F850
G1 X59.403 Y57.772 E1.8 F850
G1 X59.287 Y55.957 E1.8 F850
G1 X59.373 Y52.831 E1.8 F850
G1 X60 Y49 E1.8 F850
G1 X61.29 Y45.253 E1.8 F850
G1 X63.107 Y42.377 E1.8 F850
G1 X65.097 Y40.978 E1.8 F850
G1 X66.794 Y41.335 E1.8 F850
G1 X67.764 Y43.349 E1.8 F850
G1 X67.75 Y46.577 E1.8 F850
G1 X66.759 Y50.347 E1.8 F850
G1 X65.092 Y53.932 E1.8 F850
G1 X63.278 Y56.722 E1.8 F850
G1 X61.948 Y58.366 E1.8 F850
G1 X61.666 Y58.833 E1.8 F850
G1 X62.776 Y58.397 E1.8 F850
G1 X65.291 Y57.533 E1.8 F850
G1 X68.868 Y56.772 E1.8 F850
G1 X72.875 Y56.55 E1.8 F850
G1 X76.53 Y57.085 E1.8 F850
G1 X79.084 Y58.33 E1.8 F850
G1 X80 Y60 E1.8 F850
; --- Layer 2/6 at Z=7 ---
G0 Z10 F600 ; Safe height retract before tool change
T1 ; Tool change
G1 E0.175 F425 ; Tool-change prime
G92 E0
G0 X68 Y60 F1600
G0 Z7 F600 ; Lower to print height
G1 X67.084 Y61.67 E3 F850
G1 X64.53 Y62.915 E1.8 F850
G1 X60.875 Y63.45 E1.8 F850
G1 X56.868 Y63.228 E1.8 F850
G1 X53.291 Y62.467 E1.8 F850
G1 X50.776 Y61.603 E1.8 F850
G1 X49.666 Y61.167 E1.8 F850
G1 X49.948 Y61.634 E1.8 F850
G1 X51.278 Y63.278 E1.8 F850
G1 X53.092 Y66.068 E1.8 F850
G1 X54.759 Y69.653 E1.8 F850
G1 X55.75 Y73.423 E1.8 F850
G1 X55.764 Y76.651 E1.8 F850
G1 X54.794 Y78.665 E1.8 F850
G1 X53.097 Y79.022 E1.8 F850
G1 X51.107 Y77.623 E1.8 F850
G1 X49.29 Y74.747 E1.8 F850
G1 X48 Y71 E1.8 F850
G1 X47.373 Y67.169 E1.8 F850
G1 X47.287 Y64.043 E1.8 F850
G1 X47.403 Y62.228 E1.8 F850
G1 X47.269 Y62.008 E1.8 F850
G1 X46.467 Y63.288 E1.8 F850
G1 X44.75 Y65.629 E1.8 F850
G1 X42.141 Y68.368 E1.8 F850
G1 X38.951 Y70.785 E1.8 F850
G1 X35.722 Y72.278 E1.8 F850
G1 X33.095 Y72.507 E1.8 F850
G1 X31.645 Y71.452 E1.8 F850
G1 X31.724 Y69.397 E1.8 F850
G1 X33.352 Y66.83 E1.8 F850
G1 X36.195 Y64.297 E1.8 F850
G1 X39.625 Y62.244 E1.8 F850
G1 X42.864 Y60.906 E1.8 F850
G1 X45.168 Y60.248 E1.8 F850
G1 X46 Y60 E1.8 F850
G1 X45.168 Y59.752 E1.8 F850
G1 X42.864 Y59.094 E1.8 F850
G1 X39.625 Y57.756 E1.8 F850
G1 X36.195 Y55.703 E1.8 F850
G1 X33.352 Y53.17 E1.8 F850
G1 X31.724 Y50.603 E1.8 F850
G1 X31.645 Y48.548 E1.8 F850
G1 X33.095 Y47.493 E1.8 F850
G1 X35.722 Y47.722 E1.8 F850
G1 X38.951 Y49.215 E1.8 F850
G1 X42.141 Y51.632 E1.8 F850
G1 X44.75 Y54.371 E1.8 F850
G1 X46.467 Y56.712 E1.8 F850
G1 X47.269 Y57.992 E1.8 F850
G1 X47.403 Y57.772 E1.8 F850
G1 X47.287 Y55.957 E1.8 F850
G1 X47.373 Y52.831 E1.8 F850
G1 X48 Y49 E1.8 F850
G1 X49.29 Y45.253 E1.8 F850
G1 X51.107 Y42.377 E1.8 F850
G1 X53.097 Y40.978 E1.8 F850
G1 X54.794 Y41.335 E1.8 F850
G1 X55.764 Y43.349 E1.8 F850
G1 X55.75 Y46.577 E1.8 F850
G1 X54.759 Y50.347 E1.8 F850
G1 X53.092 Y53.932 E1.8 F850
G1 X51.278 Y56.722 E1.8 F850
G1 X49.948 Y58.366 E1.8 F850
G1 X49.666 Y58.833 E1.8 F850
G1 X50.776 Y58.397 E1.8 F850
G1 X53.291 Y57.533 E1.8 F850
G1 X56.868 Y56.772 E1.8 F850
G1 X60.875 Y56.55 E1.8 F850
G1 X64.53 Y57.085 E1.8 F850
G1 X67.084 Y58.33 E1.8 F850
G1 X68 Y60 E1.8 F850
; --- Layer 3/6 at Z=8 ---
G0 Z11 F600 ; Safe height retract before tool change
T0 ; Tool change
G1 E0.175 F425 ; Tool-change prime
G92 E0
G0 X80 Y60 F1600
G0 Z8 F600 ; Lower to print height
G1 X79.084 Y61.67 E3 F850
G1 X76.53 Y62.915 E1.8 F850
G1 X72.875 Y63.45 E1.8 F850
G1 X68.868 Y63.228 E1.8 F850
G1 X65.291 Y62.467 E1.8 F850
G1 X62.776 Y61.603 E1.8 F850
G1 X61.666 Y61.167 E1.8 F850
G1 X61.948 Y61.634 E1.8 F850
G1 X63.278 Y63.278 E1.8 F850
G1 X65.092 Y66.068 E1.8 F850
G1 X66.759 Y69.653 E1.8 F850
G1 X67.75 Y73.423 E1.8 F850
G1 X67.764 Y76.651 E1.8 F850
G1 X66.794 Y78.665 E1.8 F850
G1 X65.097 Y79.022 E1.8 F850
G1 X63.107 Y77.623 E1.8 F850
G1 X61.29 Y74.747 E1.8 F850
G1 X60 Y71 E1.8 F850
G1 X59.373 Y67.169 E1.8 F850
G1 X59.287 Y64.043 E1.8 F850
G1 X59.403 Y62.228 E1.8 F850
G1 X59.269 Y62.008 E1.8 F850
G1 X58.467 Y63.288 E1.8 F850
G1 X56.75 Y65.629 E1.8 F850
G1 X54.141 Y68.368 E1.8 F850
G1 X50.951 Y70.785 E1.8 F850
G1 X47.722 Y72.278 E1.8 F850
G1 X45.095 Y72.507 E1.8 F850
G1 X43.645 Y71.452 E1.8 F850
G1 X43.724 Y69.397 E1.8 F850
G1 X45.352 Y66.83 E1.8 F850
G1 X48.195 Y64.297 E1.8 F850
G1 X51.625 Y62.244 E1.8 F850
G1 X54.864 Y60.906 E1.8 F850
G1 X57.168 Y60.248 E1.8 F850
G1 X58 Y60 E1.8 F850
G1 X57.168 Y59.752 E1.8 F850
G1 X54.864 Y59.094 E1.8 F850
G1 X51.625 Y57.756 E1.8 F850
G1 X48.195 Y55.703 E1.8 F850
G1 X45.352 Y53.17 E1.8 F850
G1 X43.724 Y50.603 E1.8 F850
G1 X43.645 Y48.548 E1.8 F850
G1 X45.095 Y47.493 E1.8 F850
G1 X47.722 Y47.722 E1.8 F850
G1 X50.951 Y49.215 E1.8 F850
G1 X54.141 Y51.632 E1.8 F850
G1 X56.75 Y54.371 E1.8 F850
G1 X58.467 Y56.712 E1.8 F850
G1 X59.269 Y57.992 E1.8 F850
G1 X59.403 Y57.772 E1.8 F850
G1 X59.287 Y55.957 E1.8 F850
G1 X59.373 Y52.831 E1.8 F850
G1 X60 Y49 E1.8 F850
G1 X61.29 Y45.253 E1.8 F850
G1 X63.107 Y42.377 E1.8 F850
G1 X65.097 Y40.978 E1.8 F850
G1 X66.794 Y41.335 E1.8 F850
G1 X67.764 Y43.349 E1.8 F850
G1 X67.75 Y46.577 E1.8 F850
G1 X66.759 Y50.347 E1.8 F850
G1 X65.092 Y53.932 E1.8 F850
G1 X63.278 Y56.722 E1.8 F850
G1 X61.948 Y58.366 E1.8 F850
G1 X61.666 Y58.833 E1.8 F850
G1 X62.776 Y58.397 E1.8 F850
G1 X65.291 Y57.533 E1.8 F850
G1 X68.868 Y56.772 E1.8 F850
G1 X72.875 Y56.55 E1.8 F850
G1 X76.53 Y57.085 E1.8 F850
G1 X79.084 Y58.33 E1.8 F850
G1 X80 Y60 E1.8 F850
; --- Layer 4/6 at Z=9 ---
G0 Z12 F600 ; Safe height retract before tool change
T1 ; Tool change
G1 E0.175 F425 ; Tool-change prime
G92 E0
G0 X68 Y60 F1600
G0 Z9 F600 ; Lower to print height
G1 X67.084 Y61.67 E3 F850
G1 X64.53 Y62.915 E1.8 F850
G1 X60.875 Y63.45 E1.8 F850
G1 X56.868 Y63.228 E1.8 F850
G1 X53.291 Y62.467 E1.8 F850
G1 X50.776 Y61.603 E1.8 F850
G1 X49.666 Y61.167 E1.8 F850
G1 X49.948 Y61.634 E1.8 F850
G1 X51.278 Y63.278 E1.8 F850
G1 X53.092 Y66.068 E1.8 F850
G1 X54.759 Y69.653 E1.8 F850
G1 X55.75 Y73.423 E1.8 F850
G1 X55.764 Y76.651 E1.8 F850
G1 X54.794 Y78.665 E1.8 F850
G1 X53.097 Y79.022 E1.8 F850
G1 X51.107 Y77.623 E1.8 F850
G1 X49.29 Y74.747 E1.8 F850
G1 X48 Y71 E1.8 F850
G1 X47.373 Y67.169 E1.8 F850
G1 X47.287 Y64.043 E1.8 F850
G1 X47.403 Y62.228 E1.8 F850
G1 X47.269 Y62.008 E1.8 F850
G1 X46.467 Y63.288 E1.8 F850
G1 X44.75 Y65.629 E1.8 F850
G1 X42.141 Y68.368 E1.8 F850
G1 X38.951 Y70.785 E1.8 F850
G1 X35.722 Y72.278 E1.8 F850
G1 X33.095 Y72.507 E1.8 F850
G1 X31.645 Y71.452 E1.8 F850
G1 X31.724 Y69.397 E1.8 F850
G1 X33.352 Y66.83 E1.8 F850
G1 X36.195 Y64.297 E1.8 F850
G1 X39.625 Y62.244 E1.8 F850
G1 X42.864 Y60.906 E1.8 F850
G1 X45.168 Y60.248 E1.8 F850
G1 X46 Y60 E1.8 F850
G1 X45.168 Y59.752 E1.8 F850
G1 X42.864 Y59.094 E1.8 F850
G1 X39.625 Y57.756 E1.8 F850
G1 X36.195 Y55.703 E1.8 F850
G1 X33.352 Y53.17 E1.8 F850
G1 X31.724 Y50.603 E1.8 F850
G1 X31.645 Y48.548 E1.8 F850
G1 X33.095 Y47.493 E1.8 F850
G1 X35.722 Y47.722 E1.8 F850
G1 X38.951 Y49.215 E1.8 F850
G1 X42.141 Y51.632 E1.8 F850
G1 X44.75 Y54.371 E1.8 F850
G1 X46.467 Y56.712 E1.8 F850
G1 X47.269 Y57.992 E1.8 F850
G1 X47.403 Y57.772 E1.8 F850
G1 X47.287 Y55.957 E1.8 F850
G1 X47.373 Y52.831 E1.8 F850
G1 X48 Y49 E1.8 F850
G1 X49.29 Y45.253 E1.8 F850
G1 X51.107 Y42.377 E1.8 F850
G1 X53.097 Y40.978 E1.8 F850
G1 X54.794 Y41.335 E1.8 F850
G1 X55.764 Y43.349 E1.8 F850
G1 X55.75 Y46.577 E1.8 F850
G1 X54.759 Y50.347 E1.8 F850
G1 X53.092 Y53.932 E1.8 F850
G1 X51.278 Y56.722 E1.8 F850
G1 X49.948 Y58.366 E1.8 F850
G1 X49.666 Y58.833 E1.8 F850
G1 X50.776 Y58.397 E1.8 F850
G1 X53.291 Y57.533 E1.8 F850
G1 X56.868 Y56.772 E1.8 F850
G1 X60.875 Y56.55 E1.8 F850
G1 X64.53 Y57.085 E1.8 F850
G1 X67.084 Y58.33 E1.8 F850
G1 X68 Y60 E1.8 F850
; --- Layer 5/6 at Z=10 ---
G0 Z13 F600 ; Safe height retract before tool change
T0 ; Tool change
G1 E0.175 F425 ; Tool-change prime
G92 E0
G0 X80 Y60 F1600
G0 Z10 F600 ; Lower to print height
G1 X79.084 Y61.67 E3 F850
G1 X76.53 Y62.915 E1.8 F850
G1 X72.875 Y63.45 E1.8 F850
G1 X68.868 Y63.228 E1.8 F850
G1 X65.291 Y62.467 E1.8 F850
G1 X62.776 Y61.603 E1.8 F850
G1 X61.666 Y61.167 E1.8 F850
G1 X61.948 Y61.634 E1.8 F850
G1 X63.278 Y63.278 E1.8 F850
G1 X65.092 Y66.068 E1.8 F850
G1 X66.759 Y69.653 E1.8 F850
G1 X67.75 Y73.423 E1.8 F850
G1 X67.764 Y76.651 E1.8 F850
G1 X66.794 Y78.665 E1.8 F850
G1 X65.097 Y79.022 E1.8 F850
G1 X63.107 Y77.623 E1.8 F850
G1 X61.29 Y74.747 E1.8 F850
G1 X60 Y71 E1.8 F850
G1 X59.373 Y67.169 E1.8 F850
G1 X59.287 Y64.043 E1.8 F850
G1 X59.403 Y62.228 E1.8 F850
G1 X59.269 Y62.008 E1.8 F850
G1 X58.467 Y63.288 E1.8 F850
G1 X56.75 Y65.629 E1.8 F850
G1 X54.141 Y68.368 E1.8 F850
G1 X50.951 Y70.785 E1.8 F850
G1 X47.722 Y72.278 E1.8 F850
G1 X45.095 Y72.507 E1.8 F850
G1 X43.645 Y71.452 E1.8 F850
G1 X43.724 Y69.397 E1.8 F850
G1 X45.352 Y66.83 E1.8 F850
G1 X48.195 Y64.297 E1.8 F850
G1 X51.625 Y62.244 E1.8 F850
G1 X54.864 Y60.906 E1.8 F850
G1 X57.168 Y60.248 E1.8 F850
G1 X58 Y60 E1.8 F850
G1 X57.168 Y59.752 E1.8 F850
G1 X54.864 Y59.094 E1.8 F850
G1 X51.625 Y57.756 E1.8 F850
G1 X48.195 Y55.703 E1.8 F850
G1 X45.352 Y53.17 E1.8 F850
G1 X43.724 Y50.603 E1.8 F850
G1 X43.645 Y48.548 E1.8 F850
G1 X45.095 Y47.493 E1.8 F850
G1 X47.722 Y47.722 E1.8 F850
G1 X50.951 Y49.215 E1.8 F850
G1 X54.141 Y51.632 E1.8 F850
G1 X56.75 Y54.371 E1.8 F850
G1 X58.467 Y56.712 E1.8 F850
G1 X59.269 Y57.992 E1.8 F850
G1 X59.403 Y57.772 E1.8 F850
G1 X59.287 Y55.957 E1.8 F850
G1 X59.373 Y52.831 E1.8 F850
G1 X60 Y49 E1.8 F850
G1 X61.29 Y45.253 E1.8 F850
G1 X63.107 Y42.377 E1.8 F850
G1 X65.097 Y40.978 E1.8 F850
G1 X66.794 Y41.335 E1.8 F850
G1 X67.764 Y43.349 E1.8 F850
G1 X67.75 Y46.577 E1.8 F850
G1 X66.759 Y50.347 E1.8 F850
G1 X65.092 Y53.932 E1.8 F850
G1 X63.278 Y56.722 E1.8 F850
G1 X61.948 Y58.366 E1.8 F850
G1 X61.666 Y58.833 E1.8 F850
G1 X62.776 Y58.397 E1.8 F850
G1 X65.291 Y57.533 E1.8 F850
G1 X68.868 Y56.772 E1.8 F850
G1 X72.875 Y56.55 E1.8 F850
G1 X76.53 Y57.085 E1.8 F850
G1 X79.084 Y58.33 E1.8 F850
G1 X80 Y60 E1.8 F850
; --- Layer 6/6 at Z=11 ---
G0 Z14 F600 ; Safe height retract before tool change
T1 ; Tool change
G1 E0.175 F425 ; Tool-change prime
G92 E0
G0 X68 Y60 F1600
G0 Z11 F600 ; Lower to print height
G1 X67.084 Y61.67 E3 F850
G1 X64.53 Y62.915 E1.8 F850
G1 X60.875 Y63.45 E1.8 F850
G1 X56.868 Y63.228 E1.8 F850
G1 X53.291 Y62.467 E1.8 F850
G1 X50.776 Y61.603 E1.8 F850
G1 X49.666 Y61.167 E1.8 F850
G1 X49.948 Y61.634 E1.8 F850
G1 X51.278 Y63.278 E1.8 F850
G1 X53.092 Y66.068 E1.8 F850
G1 X54.759 Y69.653 E1.8 F850
G1 X55.75 Y73.423 E1.8 F850
G1 X55.764 Y76.651 E1.8 F850
G1 X54.794 Y78.665 E1.8 F850
G1 X53.097 Y79.022 E1.8 F850
G1 X51.107 Y77.623 E1.8 F850
G1 X49.29 Y74.747 E1.8 F850
G1 X48 Y71 E1.8 F850
G1 X47.373 Y67.169 E1.8 F850
G1 X47.287 Y64.043 E1.8 F850
G1 X47.403 Y62.228 E1.8 F850
G1 X47.269 Y62.008 E1.8 F850
G1 X46.467 Y63.288 E1.8 F850
G1 X44.75 Y65.629 E1.8 F850
G1 X42.141 Y68.368 E1.8 F850
G1 X38.951 Y70.785 E1.8 F850
G1 X35.722 Y72.278 E1.8 F850
G1 X33.095 Y72.507 E1.8 F850
G1 X31.645 Y71.452 E1.8 F850
G1 X31.724 Y69.397 E1.8 F850
G1 X33.352 Y66.83 E1.8 F850
G1 X36.195 Y64.297 E1.8 F850
G1 X39.625 Y62.244 E1.8 F850
G1 X42.864 Y60.906 E1.8 F850
G1 X45.168 Y60.248 E1.8 F850
G1 X46 Y60 E1.8 F850
G1 X45.168 Y59.752 E1.8 F850
G1 X42.864 Y59.094 E1.8 F850
G1 X39.625 Y57.756 E1.8 F850
G1 X36.195 Y55.703 E1.8 F850
G1 X33.352 Y53.17 E1.8 F850
G1 X31.724 Y50.603 E1.8 F850
G1 X31.645 Y48.548 E1.8 F850
G1 X33.095 Y47.493 E1.8 F850
G1 X35.722 Y47.722 E1.8 F850
G1 X38.951 Y49.215 E1.8 F850
G1 X42.141 Y51.632 E1.8 F850
G1 X44.75 Y54.371 E1.8 F850
G1 X46.467 Y56.712 E1.8 F850
G1 X47.269 Y57.992 E1.8 F850
G1 X47.403 Y57.772 E1.8 F850
G1 X47.287 Y55.957 E1.8 F850
G1 X47.373 Y52.831 E1.8 F850
G1 X48 Y49 E1.8 F850
G1 X49.29 Y45.253 E1.8 F850
G1 X51.107 Y42.377 E1.8 F850
G1 X53.097 Y40.978 E1.8 F850
G1 X54.794 Y41.335 E1.8 F850
G1 X55.764 Y43.349 E1.8 F850
G1 X55.75 Y46.577 E1.8 F850
G1 X54.759 Y50.347 E1.8 F850
G1 X53.092 Y53.932 E1.8 F850
G1 X51.278 Y56.722 E1.8 F850
G1 X49.948 Y58.366 E1.8 F850
G1 X49.666 Y58.833 E1.8 F850
G1 X50.776 Y58.397 E1.8 F850
G1 X53.291 Y57.533 E1.8 F850
G1 X56.868 Y56.772 E1.8 F850
G1 X60.875 Y56.55 E1.8 F850
G1 X64.53 Y57.085 E1.8 F850
G1 X67.084 Y58.33 E1.8 F850
G1 X68 Y60 E1.8 F850
; --- End ---
G92 E0
G0 Z30 F600
M106 S0
M84
