; Dual-extruder shape G-code (Duet)
; Toolpath generated in T0 world coordinates.
; Duet tool setup (as requested):
M563 P0 D0 H1 ; Define Tool 0
G10 P0 X0 Y0 Z0 ; Set Tool 0 offsets to zero
M563 P1 D1 H2 ; Define Tool 1
G10 P1 X12.5 Y0.5 Z-0.45 ; Set Tool 1 measured offset
; T1 offsets: X=12.5 Y=0.5 Z=-0.45
; Manual software compensation: OFF (firmware G10 handles offsets)
G21 ; mm units
G90 ; absolute XY
M82 ; absolute extrusion
G92 E0
M106 S255
T0 ; Select tool for prime
G92 E0
G0 Z5 F600
G0 X42 Y42 F1600
G1 X58 Y42 E1.2 F850
G92 E0
T1 ; Select tool for prime
G92 E0
G0 Z5 F600
G0 X46 Y46 F1600
G1 X62 Y46 E1.2 F850
G92 E0
; --- Layer 1/2 at Z=5 ---
T0 ; Tool change
G92 E0
G0 Z5 F600
G0 X68 Y60 F1600
G1 X67.97 Y60.697 E1 F850
G1 X67.878 Y61.389 E2 F850
G1 X67.727 Y62.071 E3 F850
G1 X67.518 Y62.736 E4 F850
G1 X67.25 Y63.381 E5 F850
G1 X66.928 Y64 E6 F850
G1 X66.553 Y64.589 E7 F850
G1 X66.128 Y65.142 E8 F850
G1 X65.657 Y65.657 E9 F850
G1 X65.142 Y66.128 E10 F850
G1 X64.589 Y66.553 E11 F850
G1 X64 Y66.928 E12 F850
G1 X63.381 Y67.25 E13 F850
G1 X62.736 Y67.518 E14 F850
G1 X62.071 Y67.727 E15 F850
G1 X61.389 Y67.878 E16 F850
G1 X60.697 Y67.97 E17 F850
G1 X60 Y68 E18 F850
G1 X59.303 Y67.97 E19 F850
G1 X58.611 Y67.878 E20 F850
G1 X57.929 Y67.727 E21 F850
G1 X57.264 Y67.518 E22 F850
G1 X56.619 Y67.25 E23 F850
G1 X56 Y66.928 E24 F850
G1 X55.411 Y66.553 E25 F850
G1 X54.858 Y66.128 E26 F850
G1 X54.343 Y65.657 E27 F850
G1 X53.872 Y65.142 E28 F850
G1 X53.447 Y64.589 E29 F850
G1 X53.072 Y64 E30 F850
G1 X52.75 Y63.381 E31 F850
G1 X52.482 Y62.736 E32 F850
G1 X52.273 Y62.071 E33 F850
G1 X52.122 Y61.389 E34 F850
G1 X52.03 Y60.697 E35 F850
G1 X52 Y60 E36 F850
G1 X52.03 Y59.303 E37 F850
G1 X52.122 Y58.611 E38 F850
G1 X52.273 Y57.929 E39 F850
G1 X52.482 Y57.264 E40 F850
G1 X52.75 Y56.619 E41 F850
G1 X53.072 Y56 E42 F850
G1 X53.447 Y55.411 E43 F850
G1 X53.872 Y54.858 E44 F850
G1 X54.343 Y54.343 E45 F850
G1 X54.858 Y53.872 E46 F850
G1 X55.411 Y53.447 E47 F850
G1 X56 Y53.072 E48 F850
G1 X56.619 Y52.75 E49 F850
G1 X57.264 Y52.482 E50 F850
G1 X57.929 Y52.273 E51 F850
G1 X58.611 Y52.122 E52 F850
G1 X59.303 Y52.03 E53 F850
G1 X60 Y52 E54 F850
G1 X60.697 Y52.03 E55 F850
G1 X61.389 Y52.122 E56 F850
G1 X62.071 Y52.273 E57 F850
G1 X62.736 Y52.482 E58 F850
G1 X63.381 Y52.75 E59 F850
G1 X64 Y53.072 E60 F850
G1 X64.589 Y53.447 E61 F850
G1 X65.142 Y53.872 E62 F850
G1 X65.657 Y54.343 E63 F850
G1 X66.128 Y54.858 E64 F850
G1 X66.553 Y55.411 E65 F850
G1 X66.928 Y56 E66 F850
G1 X67.25 Y56.619 E67 F850
G1 X67.518 Y57.264 E68 F850
G1 X67.727 Y57.929 E69 F850
G1 X67.878 Y58.611 E70 F850
G1 X67.97 Y59.303 E71 F850
G1 X68 Y60 E72 F850
; --- Layer 2/2 at Z=5.8 ---
T1 ; Tool change
G92 E0
G0 Z5.8 F600
G0 X68 Y60 F1600
G1 X67.97 Y60.697 E1 F850
G1 X67.878 Y61.389 E2 F850
G1 X67.727 Y62.071 E3 F850
G1 X67.518 Y62.736 E4 F850
G1 X67.25 Y63.381 E5 F850
G1 X66.928 Y64 E6 F850
G1 X66.553 Y64.589 E7 F850
G1 X66.128 Y65.142 E8 F850
G1 X65.657 Y65.657 E9 F850
G1 X65.142 Y66.128 E10 F850
G1 X64.589 Y66.553 E11 F850
G1 X64 Y66.928 E12 F850
G1 X63.381 Y67.25 E13 F850
G1 X62.736 Y67.518 E14 F850
G1 X62.071 Y67.727 E15 F850
G1 X61.389 Y67.878 E16 F850
G1 X60.697 Y67.97 E17 F850
G1 X60 Y68 E18 F850
G1 X59.303 Y67.97 E19 F850
G1 X58.611 Y67.878 E20 F850
G1 X57.929 Y67.727 E21 F850
G1 X57.264 Y67.518 E22 F850
G1 X56.619 Y67.25 E23 F850
G1 X56 Y66.928 E24 F850
G1 X55.411 Y66.553 E25 F850
G1 X54.858 Y66.128 E26 F850
G1 X54.343 Y65.657 E27 F850
G1 X53.872 Y65.142 E28 F850
G1 X53.447 Y64.589 E29 F850
G1 X53.072 Y64 E30 F850
G1 X52.75 Y63.381 E31 F850
G1 X52.482 Y62.736 E32 F850
G1 X52.273 Y62.071 E33 F850
G1 X52.122 Y61.389 E34 F850
G1 X52.03 Y60.697 E35 F850
G1 X52 Y60 E36 F850
G1 X52.03 Y59.303 E37 F850
G1 X52.122 Y58.611 E38 F850
G1 X52.273 Y57.929 E39 F850
G1 X52.482 Y57.264 E40 F850
G1 X52.75 Y56.619 E41 F850
G1 X53.072 Y56 E42 F850
G1 X53.447 Y55.411 E43 F850
G1 X53.872 Y54.858 E44 F850
G1 X54.343 Y54.343 E45 F850
G1 X54.858 Y53.872 E46 F850
G1 X55.411 Y53.447 E47 F850
G1 X56 Y53.072 E48 F850
G1 X56.619 Y52.75 E49 F850
G1 X57.264 Y52.482 E50 F850
G1 X57.929 Y52.273 E51 F850
G1 X58.611 Y52.122 E52 F850
G1 X59.303 Y52.03 E53 F850
G1 X60 Y52 E54 F850
G1 X60.697 Y52.03 E55 F850
G1 X61.389 Y52.122 E56 F850
G1 X62.071 Y52.273 E57 F850
G1 X62.736 Y52.482 E58 F850
G1 X63.381 Y52.75 E59 F850
G1 X64 Y53.072 E60 F850
G1 X64.589 Y53.447 E61 F850
G1 X65.142 Y53.872 E62 F850
G1 X65.657 Y54.343 E63 F850
G1 X66.128 Y54.858 E64 F850
G1 X66.553 Y55.411 E65 F850
G1 X66.928 Y56 E66 F850
G1 X67.25 Y56.619 E67 F850
G1 X67.518 Y57.264 E68 F850
G1 X67.727 Y57.929 E69 F850
G1 X67.878 Y58.611 E70 F850
G1 X67.97 Y59.303 E71 F850
G1 X68 Y60 E72 F850
; --- End ---
G92 E0
G0 Z30 F600
M106 S0
M84
